;FLAVOR:Marlin
;Generated with Cura_SteamEngine 4.10.0
M140 S50
M105
M190 S50
M104 S210
M105
M109 S210
M82 ;absolute extrusion mode
M201 X500.00 Y500.00 Z100.00 E5000.00 ;Setup machine max acceleration
M203 X500.00 Y500.00 Z10.00 E50.00 ;Setup machine max feedrate
M204 P500.00 R1000.00 T500.00 ;Setup Print/Retract/Travel acceleration
M205 X8.00 Y8.00 Z0.40 E5.00 ;Setup Jerk
M220 S100 ;Reset Feedrate
M221 S100 ;Reset Flowrate
G28 ;Home
G92 E0
G92 E0
G1 F2700 E-5
M107
G0 F9000 X5.280000 Y5.280000 Z0.200000
G1 F4800 E0.00000
;TYPE:WALL-OUTPE
G1 F4800 E-2.000000
G0 X5.000000 Y5.000000
G1 F4800 E0.000000
G1 F1200 X5.000000 Y5.000000 E0.000000
G1 F1200 X5.000000 Y5.000000 E0.000000
G1 F1200 X5.000000 Y5.000000 E0.000000
G1 F1200 X5.000000 Y5.000000 E0.000000
G1 F1200 X5.000000 Y5.000000 E0.000000
G1 F1200 X5.000000 Y5.000000 E0.000000
G1 F1200 X5.000000 Y5.000000 E0.000000
G1 F1200 X5.000000 Y5.000000 E0.000000
G1 F1200 X5.000000 Y5.000000 E0.000000
G1 F1200 X5.000000 Y5.000000 E0.000000
G1 F1200 X5.000000 Y5.000000 E0.000000
G1 F1200 X5.000000 Y5.000000 E0.000000
G1 F1200 X5.000000 Y5.000000 E0.000000
G1 F1200 X5.000000 Y5.000000 E0.000000
G1 F1200 X5.000000 Y5.000000 E0.000000
G1 F1200 X5.000000 Y5.000000 E0.000000
G1 F1200 X5.000000 Y5.000000 E0.000000
G1 F1200 X5.000000 Y5.000000 E0.000000
G1 F1200 X5.000000 Y5.000000 E0.000000
G1 F1200 X5.000000 Y5.000000 E0.000000
G1 F1200 X5.000000 Y5.000000 E0.000000
G1 F1200 X5.000000 Y5.000000 E0.000000
G1 F1200 X5.000000 Y5.000000 E0.000000
G1 F1200 X5.000000 Y5.000000 E0.000000
G1 F1200 X5.000000 Y5.000000 E0.000000
G1 F1200 X5.000000 Y5.000000 E0.000000
G1 F1200 X5.000000 Y5.000000 E0.000000
G1 F1200 X5.000000 Y5.000000 E0.000000
G1 F1200 X5.000000 Y5.000000 E0.000000
G1 F1200 X5.000000 Y5.000000 E0.000000
G1 F1200 X5.000000 Y5.000000 E0.000000
G1 F1200 X5.000000 Y5.000000 E0.000000
G1 F1200 X5.000000 Y5.000000 E0.000000
G1 F1200 X5.000000 Y5.000000 E0.000000
G1 F1200 X5.000000 Y5.000000 E0.000000
G1 F1200 X5.000000 Y5.000000 E0.000000
G1 F1200 X5.000000 Y5.000000 E0.000000
G1 F1200 X5.000000 Y5.000000 E0.000000
G1 F1200 X5.000000 Y5.000000 E0.000000
G1 F1200 X5.000000 Y5.000000 E0.000000
G1 F1200 X5.000000 Y5.000000 E0.000000
G1 F1200 X5.000000 Y5.000000 E0.000000
G1 F1200 X5.000000 Y5.000000 E0.000000
G1 F1200 X5.000000 Y5.000000 E0.000000
G1 F1200 X5.000000 Y5.000000 E0.000000
G1 F1200 X5.000000 Y5.000000 E0.000000
G1 F1200 X5.000000 Y5.000000 E0.000000
G1 F1200 X5.000000 Y5.000000 E0.000000
G1 F1200 X5.000000 Y5.000000 E0.000000
G1 F1200 X5.000000 Y5.000000 E0.000000
G1 F1200 X5.000000 Y5.000000 E0.000000
G1 F1200 X5.000000 Y5.000000 E0.000000
G1 F1200 X5.000000 Y5.000000 E0.000000
G1 F1200 X5.000000 Y5.000000 E0.000000
G1 F1200 X5.000000 Y5.000000 E0.000000
G1 F1200 X5.000000 Y5.000000 E0.000000
G1 F1200 X5.000000 Y5.000000 E0.000000
G1 F1200 X5.000000 Y5.000000 E0.000000
G1 F1200 X5.000000 Y5.000000 E0.000000
G1 F1200 X5.000000 Y5.000000 E0.000000
G1 F1200 X5.000000 Y5.000000 E0.000000
G1 F1200 X5.000000 Y5.000000 E0.000000
G1 F1200 X5.000000 Y5.000000 E0.000000
G1 F1200 X5.000000 Y5.000000 E0.000000
G1 F1200 X5.000000 Y5.000000 E0.000000
G1 F1200 X5.000000 Y5.000000 E0.000000
G1 F1200 X5.000000 Y5.000000 E0.000000
G1 F1200 X5.000000 Y5.000000 E0.000000
G1 F1200 X5.000000 Y5.000000 E0.000000
G1 F1200 X5.000000 Y5.000000 E0.000000
G1 F1200 X5.000000 Y5.000000 E0.000000
G1 F1200 X5.000000 Y5.000000 E0.000000
G1 F1200 X5.000000 Y5.000000 E0.000000
G1 F1200 X5.000000 Y5.000000 E0.000000
G1 F1200 X5.000000 Y5.000000 E0.000000
G1 F1200 X5.000000 Y5.000000 E0.000000
G1 F1200 X5.000000 Y5.000000 E0.000000
G1 F1200 X5.000000 Y5.000000 E0.000000
G1 F1200 X5.000000 Y5.000000 E0.000000
G1 F1200 X5.000000 Y5.000000 E0.000000
G1 F1200 X5.000000 Y5.000000 E0.000000
G1 F1200 X5.000000 Y5.000000 E0.000000
G1 F1200 X5.000000 Y5.000000 E0.000000
G1 F1200 X5.000000 Y5.000000 E0.000000
G1 F1200 X5.000000 Y5.000000 E0.000000
G1 F1200 X5.000000 Y5.000000 E0.000000
G1 F1200 X5.000000 Y5.000000 E0.000000
G1 F1200 X5.000000 Y5.000000 E0.000000
G1 F1200 X5.000000 Y5.000000 E0.000000
G1 F1200 X5.000000 Y5.000000 E0.000000
G1 F1200 X5.000000 Y5.000000 E0.000000
G1 F1200 X5.000000 Y5.000000 E0.000000
G1 F1200 X5.000000 Y5.000000 E0.000000
G1 F1200 X5.000000 Y5.000000 E0.000000
G1 F1200 X5.000000 Y5.000000 E0.000000
G1 F1200 X5.000000 Y5.000000 E0.000000
G1 F1200 X5.000000 Y5.000000 E0.000000
G1 F1200 X5.000000 Y5.000000 E0.000000
G1 F1200 X5.000000 Y5.000000 E0.000000
G1 F1200 X5.000000 Y5.000000 E0.000000
G1 F1200 X5.000000 Y5.000000 E0.000000
G1 F1200 X5.000000 Y5.000000 E0.000000
G1 F1200 X5.000000 Y5.000000 E0.000000
G1 F1200 X5.000000 Y5.000000 E0.000000
G1 F1200 X5.000000 Y5.000000 E0.000000
G1 F1200 X5.000000 Y5.000000 E0.000000
G1 F1200 X5.000000 Y5.000000 E0.000000
G1 F1200 X5.000000 Y5.000000 E0.000000
G1 F1200 X5.000000 Y5.000000 E0.000000
G1 F1200 X5.000000 Y5.000000 E0.000000
G1 F1200 X5.000000 Y5.000000 E0.000000
G1 F1200 X5.000000 Y5.000000 E0.000000
G1 F1200 X5.000000 Y5.000000 E0.000000
G1 F1200 X5.000000 Y5.000000 E0.000000
G1 F1200 X5.000000 Y5.000000 E0.000000
G1 F1200 X5.000000 Y5.000000 E0.000000
G1 F1200 X5.000000 Y5.000000 E0.000000
G1 F1200 X5.000000 Y5.000000 E0.000000
G1 F1200 X5.000000 Y5.000000 E0.000000
G1 F1200 X5.000000 Y5.000000 E0.000000
G1 F1200 X5.000000 Y5.000000 E0.000000
G1 F1200 X5.000000 Y5.000000 E0.000000
G1 F1200 X5.000000 Y5.000000 E0.000000
G1 F1200 X5.000000 Y5.000000 E0.000000
G1 F1200 X5.000000 Y5.000000 E0.000000
G1 F1200 X5.000000 Y5.000000 E0.000000
G1 F1200 X5.000000 Y5.000000 E0.000000
G1 F1200 X5.000000 Y5.000000 E0.000000
G1 F1200 X5.000000 Y5.000000 E0.000000
G1 F1200 X5.000000 Y5.000000 E0.000000
G1 F1200 X5.000000 Y5.000000 E0.000000
G1 F1200 X5.000000 Y5.000000 E0.000000
G1 F1200 X5.000000 Y5.000000 E0.000000
G1 F1200 X5.000000 Y5.000000 E0.000000
G1 F1200 X5.000000 Y5.000000 E0.000000
G1 F1200 X5.000000 Y5.000000 E0.000000
G1 F1200 X5.000000 Y5.000000 E0.000000
G1 F1200 X5.000000 Y5.000000 E0.000000
G1 F1200 X5.000000 Y5.000000 E0.000000
G1 F1200 X5.000000 Y5.000000 E0.000000
G1 F1200 X5.000000 Y5.000000 E0.000000
G1 F1200 X5.000000 Y5.000000 E0.000000
G1 F1200 X5.000000 Y5.000000 E0.000000
G1 F1200 X5.000000 Y5.000000 E0.000000
G1 F1200 X5.000000 Y5.000000 E0.000000
G1 F1200 X5.000000 Y5.000000 E0.000000
G1 F1200 X5.000000 Y5.000000 E0.000000
G1 F1200 X5.000000 Y5.000000 E0.000000
G1 F1200 X5.000000 Y5.000000 E0.000000
G1 F1200 X5.000000 Y5.000000 E0.000000
G1 F1200 X5.000000 Y5.000000 E0.000000
G1 F1200 X5.000000 Y5.000000 E0.000000
G1 F1200 X5.000000 Y5.000000 E0.000000
G1 F1200 X5.000000 Y5.000000 E0.000000
G1 F1200 X5.000000 Y5.000000 E0.000000
G1 F1200 X5.000000 Y5.000000 E0.000000
G1 F1200 X5.000000 Y5.000000 E0.000000
G1 F1200 X5.000000 Y5.000000 E0.000000
G1 F1200 X5.000000 Y5.000000 E0.000000
G1 F1200 X5.000000 Y5.000000 E0.000000
G1 F1200 X5.000000 Y5.000000 E0.000000
G1 F1200 X5.000000 Y5.000000 E0.000000
G1 F1200 X5.000000 Y5.000000 E0.000000
G1 F1200 X5.000000 Y5.000000 E0.000000
G1 F1200 X5.000000 Y5.000000 E0.000000
G1 F1200 X5.000000 Y5.000000 E0.000000
G1 F1200 X5.000000 Y5.000000 E0.000000
G1 F1200 X5.000000 Y5.000000 E0.000000
G1 F1200 X5.000000 Y5.000000 E0.000000
G1 F1200 X5.000000 Y5.000000 E0.000000
G1 F1200 X5.000000 Y5.000000 E0.000000
G1 F1200 X5.000000 Y5.000000 E0.000000
G1 F1200 X5.000000 Y5.000000 E0.000000
G1 F1200 X5.000000 Y5.000000 E0.000000
G1 F1200 X5.000000 Y5.000000 E0.000000
G1 F1200 X5.000000 Y5.000000 E0.000000
G1 F1200 X5.000000 Y5.000000 E0.000000
G1 F1200 X5.000000 Y5.000000 E0.000000
G1 F1200 X5.000000 Y5.000000 E0.000000
G1 F1200 X5.000000 Y5.000000 E0.000000
G1 F1200 X5.000000 Y5.000000 E0.000000
G1 F1200 X5.000000 Y5.000000 E0.000000
G1 F1200 X5.000000 Y5.000000 E0.000000
G1 F1200 X5.000000 Y5.000000 E0.000000
G1 F1200 X5.000000 Y5.000000 E0.000000
G1 F1200 X5.000000 Y5.000000 E0.000000
G1 F1200 X5.000000 Y5.000000 E0.000000
G1 F1200 X5.000000 Y5.000000 E0.000000
G1 F1200 X5.000000 Y5.000000 E0.000000
G1 F1200 X5.000000 Y5.000000 E0.000000
G1 F1200 X5.000000 Y5.000000 E0.000000
G1 F1200 X5.000000 Y5.000000 E0.000000
G1 F1200 X5.000000 Y5.000000 E0.000000
G1 F1200 X5.000000 Y5.000000 E0.000000
G1 F1200 X5.000000 Y5.000000 E0.000000
G1 F1200 X5.000000 Y5.000000 E0.000000
G1 F1200 X5.000000 Y5.000000 E0.000000
G1 F1200 X5.000000 Y5.000000 E0.000000
G1 F1200 X5.000000 Y5.000000 E0.000000
G1 F1200 X5.000000 Y5.000000 E0.000000
G1 F1200 X5.000000 Y5.000000 E0.000000
G1 F1200 X5.000000 Y5.000000 E0.000000
G1 F1200 X5.000000 Y5.000000 E0.000000
G1 F1200 X5.000000 Y5.000000 E0.000000
G1 F1200 X5.000000 Y5.000000 E0.000000
G1 F1200 X5.000000 Y5.000000 E0.000000
G1 F1200 X5.000000 Y5.000000 E0.000000
G1 F1200 X5.000000 Y5.000000 E0.000000
G1 F1200 X5.000000 Y5.000000 E0.000000
G1 F1200 X5.000000 Y5.000000 E0.000000
G1 F1200 X5.000000 Y5.000000 E0.000000
G1 F1200 X5.000000 Y5.000000 E0.000000
G1 F1200 X5.000000 Y5.000000 E0.000000
G1 F1200 X5.000000 Y5.000000 E0.000000
G1 F1200 X5.000000 Y5.000000 E0.000000
G1 F1200 X5.000000 Y5.000000 E0.000000
G1 F1200 X5.000000 Y5.000000 E0.000000
G1 F1200 X5.000000 Y5.000000 E0.000000
G1 F1200 X5.000000 Y5.000000 E0.000000
G1 F1200 X5.000000 Y5.000000 E0.000000
G1 F1200 X5.000000 Y5.000000 E0.000000
G1 F1200 X5.000000 Y5.000000 E0.000000
G1 F1200 X5.000000 Y5.000000 E0.000000
G1 F1200 X5.000000 Y5.000000 E0.000000
G1 F1200 X5.000000 Y5.000000 E0.000000
G1 F1200 X5.000000 Y5.000000 E0.000000
G1 F1200 X5.000000 Y5.000000 E0.000000
G1 F1200 X5.000000 Y5.000000 E0.000000
G1 F1200 X5.000000 Y5.000000 E0.000000
G1 F1200 X5.000000 Y5.000000 E0.000000
G1 F1200 X5.000000 Y5.000000 E0.000000
G1 F1200 X5.000000 Y5.000000 E0.000000
;TYPE:FILL
G1 F4800 E-2.000000
G0 X5.280000 Y5.280000
G1 F4800 E0.000000
G1 F1200 X17.040000 Y5.280000 E0.559306
G1 F1200 X17.040000 Y9.760000 E0.772374
G1 F1200 X33.280000 Y9.760000 E1.544749
G1 F1200 X33.280000 Y5.280000 E1.757818
G1 F1200 X45.040000 Y5.280000 E2.317123
G1 F1200 X45.040000 Y19.280000 E2.982963
G1 F1200 X32.720000 Y19.280000 E3.568902
G1 F1200 X32.720000 Y47.560000 E4.913899
G1 F1200 X33.280000 Y47.560000 E4.940533
G1 F1200 X33.280000 Y41.120000 E5.246819
G1 F1200 X43.920000 Y41.120000 E5.752858
G1 F1200 X43.920000 Y54.000000 E6.365430
G1 F1200 X34.400000 Y54.000000 E6.818202
G1 F1200 X34.400000 Y42.240000 E7.377507
G1 F1200 X42.800000 Y42.240000 E7.777011
G1 F1200 X42.800000 Y52.880000 E8.283050
G1 F1200 X35.520000 Y52.880000 E8.629286
G1 F1200 X35.520000 Y43.360000 E9.082058
G1 F1200 X41.680000 Y43.360000 E9.375027
G1 F1200 X41.680000 Y51.760000 E9.774531
G1 F1200 X36.640000 Y51.760000 E10.014234
G1 F1200 X36.640000 Y44.480000 E10.360470
G1 F1200 X40.560000 Y44.480000 E10.546906
G1 F1200 X40.560000 Y50.640000 E10.839875
G1 F1200 X37.760000 Y50.640000 E10.973043
G1 F1200 X37.760000 Y45.600000 E11.212746
G1 F1200 X39.440000 Y45.600000 E11.292646
G1 F1200 X39.440000 Y49.520000 E11.479082
G1 F1200 X38.880000 Y49.520000 E11.505715
G1 F1200 X38.880000 Y46.160000 E11.665517
G1 F1200 X38.320000 Y46.160000 E11.692150
G1 F1200 X38.320000 Y50.080000 E11.878586
G1 F1200 X40.000000 Y50.080000 E11.958486
G1 F1200 X40.000000 Y45.040000 E12.198189
G1 F1200 X37.200000 Y45.040000 E12.331357
G1 F1200 X37.200000 Y51.200000 E12.624326
G1 F1200 X41.120000 Y51.200000 E12.810762
G1 F1200 X41.120000 Y43.920000 E13.156998
G1 F1200 X36.080000 Y43.920000 E13.396701
G1 F1200 X36.080000 Y52.320000 E13.796205
G1 F1200 X42.240000 Y52.320000 E14.089174
G1 F1200 X42.240000 Y42.800000 E14.541946
G1 F1200 X34.960000 Y42.800000 E14.888182
G1 F1200 X34.960000 Y53.440000 E15.394221
G1 F1200 X43.360000 Y53.440000 E15.793725
G1 F1200 X43.360000 Y41.680000 E16.353030
G1 F1200 X33.840000 Y41.680000 E16.805802
G1 F1200 X33.840000 Y54.560000 E17.418374
G1 F1200 X44.480000 Y54.560000 E17.924413
G1 F1200 X44.480000 Y40.560000 E18.590253
G1 F1200 X33.280000 Y40.560000 E19.122925
G1 F1200 X33.280000 Y40.000000 E19.149558
G1 F1200 X45.040000 Y40.000000 E19.708864
G1 F1200 X45.040000 Y55.120000 E20.427971
G1 F1200 X33.280000 Y55.120000 E20.987277
G1 F1200 X33.280000 Y48.120000 E21.320197
G1 F1200 X32.720000 Y48.120000 E21.346830
G1 F1200 X32.720000 Y49.520000 E21.413414
G1 F1200 X17.040000 Y49.520000 E22.159155
G1 F1200 X17.040000 Y55.120000 E22.425491
G1 F1200 X5.280000 Y55.120000 E22.984797
G1 F1200 X5.280000 Y40.000000 E23.703904
G1 F1200 X17.600000 Y40.000000 E24.289843
G1 F1200 X17.600000 Y10.880000 E25.674790
G1 F1200 X34.400000 Y10.880000 E26.473798
G1 F1200 X34.400000 Y6.400000 E26.686867
G1 F1200 X43.920000 Y6.400000 E27.139638
G1 F1200 X43.920000 Y18.160000 E27.698944
G1 F1200 X31.600000 Y18.160000 E28.284883
G1 F1200 X31.600000 Y48.400000 E29.723098
G1 F1200 X15.920000 Y48.400000 E30.468838
G1 F1200 X15.920000 Y54.000000 E30.735174
G1 F1200 X6.400000 Y54.000000 E31.187946
G1 F1200 X6.400000 Y41.120000 E31.800518
G1 F1200 X18.720000 Y41.120000 E32.386458
G1 F1200 X18.720000 Y12.000000 E33.771405
G1 F1200 X35.520000 Y12.000000 E34.570413
G1 F1200 X35.520000 Y7.520000 E34.783482
G1 F1200 X42.800000 Y7.520000 E35.129718
G1 F1200 X42.800000 Y17.040000 E35.582490
G1 F1200 X30.480000 Y17.040000 E36.168429
G1 F1200 X30.480000 Y47.280000 E37.606643
G1 F1200 X14.800000 Y47.280000 E38.352384
G1 F1200 X14.800000 Y52.880000 E38.618720
G1 F1200 X7.520000 Y52.880000 E38.964957
G1 F1200 X7.520000 Y42.240000 E39.470995
G1 F1200 X19.840000 Y42.240000 E40.056934
G1 F1200 X19.840000 Y13.120000 E41.441882
G1 F1200 X36.640000 Y13.120000 E42.240890
G1 F1200 X36.640000 Y8.640000 E42.453958
G1 F1200 X41.680000 Y8.640000 E42.693661
G1 F1200 X41.680000 Y15.920000 E43.039898
G1 F1200 X29.360000 Y15.920000 E43.625837
G1 F1200 X29.360000 Y46.160000 E45.064051
G1 F1200 X13.680000 Y46.160000 E45.809792
G1 F1200 X13.680000 Y51.760000 E46.076128
G1 F1200 X8.640000 Y51.760000 E46.315830
G1 F1200 X8.640000 Y43.360000 E46.715334
G1 F1200 X20.960000 Y43.360000 E47.301274
G1 F1200 X20.960000 Y14.240000 E48.686221
G1 F1200 X37.760000 Y14.240000 E49.485229
G1 F1200 X37.760000 Y9.760000 E49.698298
G1 F1200 X40.560000 Y9.760000 E49.831466
G1 F1200 X40.560000 Y14.800000 E50.071168
G1 F1200 X38.880000 Y14.800000 E50.151069
G1 F1200 X38.880000 Y10.880000 E50.337504
G1 F1200 X39.440000 Y10.880000 E50.364138
G1 F1200 X39.440000 Y14.240000 E50.523939
G1 F1200 X40.000000 Y14.240000 E50.550573
G1 F1200 X40.000000 Y10.320000 E50.737008
G1 F1200 X38.320000 Y10.320000 E50.816909
G1 F1200 X38.320000 Y14.800000 E51.029978
G1 F1200 X22.920000 Y14.800000 E51.762402
G1 F1200 X22.920000 Y15.360000 E51.789035
G1 F1200 X28.240000 Y15.360000 E52.042054
G1 F1200 X28.240000 Y45.040000 E53.453635
G1 F1200 X12.560000 Y45.040000 E54.199376
G1 F1200 X12.560000 Y50.640000 E54.465712
G1 F1200 X9.760000 Y50.640000 E54.598880
G1 F1200 X9.760000 Y44.480000 E54.891850
G1 F1200 X11.440000 Y44.480000 E54.971750
G1 F1200 X11.440000 Y49.520000 E55.211453
G1 F1200 X10.880000 Y49.520000 E55.238086
G1 F1200 X10.880000 Y45.040000 E55.451155
G1 F1200 X10.320000 Y45.040000 E55.477789
G1 F1200 X10.320000 Y50.080000 E55.717491
G1 F1200 X12.000000 Y50.080000 E55.797392
G1 F1200 X12.000000 Y44.480000 E56.063728
G1 F1200 X27.680000 Y44.480000 E56.809469
G1 F1200 X27.680000 Y15.920000 E58.167782
G1 F1200 X22.220000 Y15.920000 E58.427460
G1 F1200 X22.220000 Y16.480000 E58.454094
G1 F1200 X27.120000 Y16.480000 E58.687138
G1 F1200 X27.120000 Y43.920000 E59.992184
G1 F1200 X22.080000 Y43.920000 E60.231886
G1 F1200 X22.080000 Y17.600000 E61.483666
G1 F1200 X26.000000 Y17.600000 E61.670101
G1 F1200 X26.000000 Y42.800000 E62.868613
G1 F1200 X23.200000 Y42.800000 E63.001781
G1 F1200 X23.200000 Y18.720000 E64.147026
G1 F1200 X24.880000 Y18.720000 E64.226926
G1 F1200 X24.880000 Y41.680000 E65.318904
G1 F1200 X24.320000 Y41.680000 E65.345538
G1 F1200 X24.320000 Y19.280000 E66.410882
G1 F1200 X23.760000 Y19.280000 E66.437515
G1 F1200 X23.760000 Y42.240000 E67.529493
G1 F1200 X25.440000 Y42.240000 E67.609394
G1 F1200 X25.440000 Y18.160000 E68.754638
G1 F1200 X22.640000 Y18.160000 E68.887806
G1 F1200 X22.640000 Y43.360000 E70.086318
