;FLAVOR:Marlin
;Generated with Cura_SteamEngine 4.10.0
M140 S50
M105
M190 S50
M104 S210
M105
M109 S210
M82 ;absolute extrusion mode
M201 X500.00 Y500.00 Z100.00 E5000.00 ;Setup machine max acceleration
M203 X500.00 Y500.00 Z10.00 E50.00 ;Setup machine max feedrate
M204 P500.00 R1000.00 T500.00 ;Setup Print/Retract/Travel acceleration
M205 X8.00 Y8.00 Z0.40 E5.00 ;Setup Jerk
M220 S100 ;Reset Feedrate
M221 S100 ;Reset Flowrate
G28 ;Home
G92 E0
G92 E0
G1 F2700 E-5
M107
G0 F9000 X5.280000 Y5.280000 Z0.200000
G1 F4800 E0.00000
;TYPE:WALL-OUTPE
G1 F4800 E-2.000000
G0 X5.000000 Y5.000000
G1 F4800 E0.000000
G1 F1200 X5.000000 Y5.000000 E0.000000
G1 F1200 X5.000000 Y5.000000 E0.000000
G1 F1200 X5.000000 Y5.000000 E0.000000
G1 F1200 X5.000000 Y5.000000 E0.000000
G1 F1200 X5.000000 Y5.000000 E0.000000
G1 F1200 X5.000000 Y5.000000 E0.000000
G1 F1200 X5.000000 Y5.000000 E0.000000
G1 F1200 X5.000000 Y5.000000 E0.000000
G1 F1200 X5.000000 Y5.000000 E0.000000
G1 F1200 X5.000000 Y5.000000 E0.000000
G1 F1200 X5.000000 Y5.000000 E0.000000
G1 F1200 X5.000000 Y5.000000 E0.000000
G1 F1200 X5.000000 Y5.000000 E0.000000
G1 F1200 X5.000000 Y5.000000 E0.000000
G1 F1200 X5.000000 Y5.000000 E0.000000
G1 F1200 X5.000000 Y5.000000 E0.000000
G1 F1200 X5.000000 Y5.000000 E0.000000
G1 F1200 X5.000000 Y5.000000 E0.000000
G1 F1200 X5.000000 Y5.000000 E0.000000
G1 F1200 X5.000000 Y5.000000 E0.000000
G1 F1200 X5.000000 Y5.000000 E0.000000
G1 F1200 X5.000000 Y5.000000 E0.000000
G1 F1200 X5.000000 Y5.000000 E0.000000
G1 F1200 X5.000000 Y5.000000 E0.000000
G1 F1200 X5.000000 Y5.000000 E0.000000
G1 F1200 X5.000000 Y5.000000 E0.000000
G1 F1200 X5.000000 Y5.000000 E0.000000
G1 F1200 X5.000000 Y5.000000 E0.000000
G1 F1200 X5.000000 Y5.000000 E0.000000
G1 F1200 X5.000000 Y5.000000 E0.000000
G1 F1200 X5.000000 Y5.000000 E0.000000
G1 F1200 X5.000000 Y5.000000 E0.000000
G1 F1200 X5.000000 Y5.000000 E0.000000
G1 F1200 X5.000000 Y5.000000 E0.000000
G1 F1200 X5.000000 Y5.000000 E0.000000
G1 F1200 X5.000000 Y5.000000 E0.000000
G1 F1200 X5.000000 Y5.000000 E0.000000
G1 F1200 X5.000000 Y5.000000 E0.000000
G1 F1200 X5.000000 Y5.000000 E0.000000
G1 F1200 X5.000000 Y5.000000 E0.000000
G1 F1200 X5.000000 Y5.000000 E0.000000
G1 F1200 X5.000000 Y5.000000 E0.000000
G1 F1200 X5.000000 Y5.000000 E0.000000
G1 F1200 X5.000000 Y5.000000 E0.000000
G1 F1200 X5.000000 Y5.000000 E0.000000
G1 F1200 X5.000000 Y5.000000 E0.000000
G1 F1200 X5.000000 Y5.000000 E0.000000
G1 F1200 X5.000000 Y5.000000 E0.000000
G1 F1200 X5.000000 Y5.000000 E0.000000
G1 F1200 X5.000000 Y5.000000 E0.000000
G1 F1200 X5.000000 Y5.000000 E0.000000
G1 F1200 X5.000000 Y5.000000 E0.000000
G1 F1200 X5.000000 Y5.000000 E0.000000
G1 F1200 X5.000000 Y5.000000 E0.000000
G1 F1200 X5.000000 Y5.000000 E0.000000
G1 F1200 X5.000000 Y5.000000 E0.000000
G1 F1200 X5.000000 Y5.000000 E0.000000
G1 F1200 X5.000000 Y5.000000 E0.000000
G1 F1200 X5.000000 Y5.000000 E0.000000
G1 F1200 X5.000000 Y5.000000 E0.000000
G1 F1200 X5.000000 Y5.000000 E0.000000
G1 F1200 X5.000000 Y5.000000 E0.000000
G1 F1200 X5.000000 Y5.000000 E0.000000
G1 F1200 X5.000000 Y5.000000 E0.000000
G1 F1200 X5.000000 Y5.000000 E0.000000
G1 F1200 X5.000000 Y5.000000 E0.000000
G1 F1200 X5.000000 Y5.000000 E0.000000
G1 F1200 X5.000000 Y5.000000 E0.000000
G1 F1200 X5.000000 Y5.000000 E0.000000
G1 F1200 X5.000000 Y5.000000 E0.000000
G1 F1200 X5.000000 Y5.000000 E0.000000
G1 F1200 X5.000000 Y5.000000 E0.000000
G1 F1200 X5.000000 Y5.000000 E0.000000
G1 F1200 X5.000000 Y5.000000 E0.000000
G1 F1200 X5.000000 Y5.000000 E0.000000
G1 F1200 X5.000000 Y5.000000 E0.000000
G1 F1200 X5.000000 Y5.000000 E0.000000
G1 F1200 X5.000000 Y5.000000 E0.000000
G1 F1200 X5.000000 Y5.000000 E0.000000
G1 F1200 X5.000000 Y5.000000 E0.000000
G1 F1200 X5.000000 Y5.000000 E0.000000
G1 F1200 X5.000000 Y5.000000 E0.000000
G1 F1200 X5.000000 Y5.000000 E0.000000
G1 F1200 X5.000000 Y5.000000 E0.000000
G1 F1200 X5.000000 Y5.000000 E0.000000
G1 F1200 X5.000000 Y5.000000 E0.000000
G1 F1200 X5.000000 Y5.000000 E0.000000
G1 F1200 X5.000000 Y5.000000 E0.000000
G1 F1200 X5.000000 Y5.000000 E0.000000
G1 F1200 X5.000000 Y5.000000 E0.000000
G1 F1200 X5.000000 Y5.000000 E0.000000
G1 F1200 X5.000000 Y5.000000 E0.000000
G1 F1200 X5.000000 Y5.000000 E0.000000
G1 F1200 X5.000000 Y5.000000 E0.000000
;TYPE:FILL
G1 F4800 E-2.000000
G0 X5.280000 Y5.280000
G1 F4800 E0.000000
G1 F1200 X9.200000 Y5.280000 E0.186435
G1 F1200 X9.200000 Y8.640000 E0.346237
G1 F1200 X48.960000 Y8.640000 E2.237222
G1 F1200 X48.960000 Y5.280000 E2.397024
G1 F1200 X80.880000 Y5.280000 E3.915139
G1 F1200 X80.880000 Y80.880000 E7.510675
G1 F1200 X5.280000 Y80.880000 E11.106211
G1 F1200 X5.280000 Y52.320000 E12.464525
G1 F1200 X16.480000 Y52.320000 E12.997197
G1 F1200 X16.480000 Y9.760000 E15.021350
G1 F1200 X50.080000 Y9.760000 E16.619366
G1 F1200 X50.080000 Y6.400000 E16.779168
G1 F1200 X79.760000 Y6.400000 E18.190749
G1 F1200 X79.760000 Y79.760000 E21.679750
G1 F1200 X6.400000 Y79.760000 E25.168752
G1 F1200 X6.400000 Y53.440000 E26.420531
G1 F1200 X17.600000 Y53.440000 E26.953203
G1 F1200 X17.600000 Y10.880000 E28.977357
G1 F1200 X51.200000 Y10.880000 E30.575373
G1 F1200 X51.200000 Y7.520000 E30.735174
G1 F1200 X78.640000 Y7.520000 E32.040221
G1 F1200 X78.640000 Y78.640000 E35.422688
G1 F1200 X7.520000 Y78.640000 E38.805155
G1 F1200 X7.520000 Y54.560000 E39.950400
G1 F1200 X18.720000 Y54.560000 E40.483072
G1 F1200 X18.720000 Y12.000000 E42.507226
G1 F1200 X52.320000 Y12.000000 E44.105242
G1 F1200 X52.320000 Y8.640000 E44.265043
G1 F1200 X77.520000 Y8.640000 E45.463555
G1 F1200 X77.520000 Y77.520000 E48.739488
G1 F1200 X8.640000 Y77.520000 E52.015421
G1 F1200 X8.640000 Y55.680000 E53.054131
G1 F1200 X19.840000 Y55.680000 E53.586803
G1 F1200 X19.840000 Y13.120000 E55.610957
G1 F1200 X53.440000 Y13.120000 E57.208973
G1 F1200 X53.440000 Y9.760000 E57.368774
G1 F1200 X76.400000 Y9.760000 E58.460752
G1 F1200 X76.400000 Y76.400000 E61.630150
G1 F1200 X9.760000 Y76.400000 E64.799549
G1 F1200 X9.760000 Y56.800000 E65.731725
G1 F1200 X20.960000 Y56.800000 E66.264397
G1 F1200 X20.960000 Y14.240000 E68.288550
G1 F1200 X54.560000 Y14.240000 E69.886566
G1 F1200 X54.560000 Y10.880000 E70.046368
G1 F1200 X75.280000 Y10.880000 E71.031811
G1 F1200 X75.280000 Y75.280000 E74.094675
G1 F1200 X10.880000 Y75.280000 E77.157539
G1 F1200 X10.880000 Y57.920000 E77.983181
G1 F1200 X22.080000 Y57.920000 E78.515853
G1 F1200 X22.080000 Y15.360000 E80.540006
G1 F1200 X55.680000 Y15.360000 E82.138022
G1 F1200 X55.680000 Y12.000000 E82.297824
G1 F1200 X74.160000 Y12.000000 E83.176733
G1 F1200 X74.160000 Y74.160000 E86.133062
G1 F1200 X12.000000 Y74.160000 E89.089392
G1 F1200 X12.000000 Y59.040000 E89.808499
G1 F1200 X23.200000 Y59.040000 E90.341171
G1 F1200 X23.200000 Y16.480000 E92.365325
G1 F1200 X56.800000 Y16.480000 E93.963341
G1 F1200 X56.800000 Y13.120000 E94.123142
G1 F1200 X73.040000 Y13.120000 E94.895517
G1 F1200 X73.040000 Y73.040000 E97.745312
G1 F1200 X13.120000 Y73.040000 E100.595107
G1 F1200 X13.120000 Y60.160000 E101.207680
G1 F1200 X24.320000 Y60.160000 E101.740352
G1 F1200 X24.320000 Y17.600000 E103.764506
G1 F1200 X57.920000 Y17.600000 E105.362522
G1 F1200 X57.920000 Y14.240000 E105.522323
G1 F1200 X71.920000 Y14.240000 E106.188163
G1 F1200 X71.920000 Y71.920000 E108.931424
G1 F1200 X14.240000 Y71.920000 E111.674685
G1 F1200 X14.240000 Y61.280000 E112.180723
G1 F1200 X25.440000 Y61.280000 E112.713395
G1 F1200 X25.440000 Y18.720000 E114.737549
G1 F1200 X59.040000 Y18.720000 E116.335565
G1 F1200 X59.040000 Y15.360000 E116.495366
G1 F1200 X70.800000 Y15.360000 E117.054672
G1 F1200 X70.800000 Y70.800000 E119.691398
G1 F1200 X15.360000 Y70.800000 E122.328125
G1 F1200 X15.360000 Y62.400000 E122.727629
G1 F1200 X26.560000 Y62.400000 E123.260301
G1 F1200 X26.560000 Y19.840000 E125.284454
G1 F1200 X60.160000 Y19.840000 E126.882470
G1 F1200 X60.160000 Y16.480000 E127.042272
G1 F1200 X69.680000 Y16.480000 E127.495043
G1 F1200 X69.680000 Y69.680000 E130.025235
G1 F1200 X16.480000 Y69.680000 E132.555427
G1 F1200 X16.480000 Y63.520000 E132.848397
G1 F1200 X27.680000 Y63.520000 E133.381069
G1 F1200 X27.680000 Y20.960000 E135.405222
G1 F1200 X48.400000 Y20.960000 E136.390666
G1 F1200 X48.400000 Y25.440000 E136.603734
G1 F1200 X65.200000 Y25.440000 E137.402742
G1 F1200 X65.200000 Y40.560000 E138.121850
G1 F1200 X48.400000 Y40.560000 E138.920858
G1 F1200 X48.400000 Y68.560000 E140.252538
G1 F1200 X17.600000 Y68.560000 E141.717386
G1 F1200 X17.600000 Y64.640000 E141.903821
G1 F1200 X28.800000 Y64.640000 E142.436493
G1 F1200 X28.800000 Y22.080000 E144.460646
G1 F1200 X47.280000 Y22.080000 E145.339555
G1 F1200 X47.280000 Y26.560000 E145.552624
G1 F1200 X64.080000 Y26.560000 E146.351632
G1 F1200 X64.080000 Y39.440000 E146.964205
G1 F1200 X47.280000 Y39.440000 E147.763213
G1 F1200 X47.280000 Y67.440000 E149.094893
G1 F1200 X18.720000 Y67.440000 E150.453206
G1 F1200 X18.720000 Y65.760000 E150.533107
G1 F1200 X29.920000 Y65.760000 E151.065779
G1 F1200 X29.920000 Y23.200000 E153.089933
G1 F1200 X46.160000 Y23.200000 E153.862307
G1 F1200 X46.160000 Y27.680000 E154.075376
G1 F1200 X62.960000 Y27.680000 E154.874384
G1 F1200 X62.960000 Y38.320000 E155.380422
G1 F1200 X46.160000 Y38.320000 E156.179430
G1 F1200 X46.160000 Y66.320000 E157.511110
G1 F1200 X31.040000 Y66.320000 E158.230218
G1 F1200 X31.040000 Y24.320000 E160.227738
G1 F1200 X45.040000 Y24.320000 E160.893578
G1 F1200 X45.040000 Y28.800000 E161.106646
G1 F1200 X61.840000 Y28.800000 E161.905654
G1 F1200 X61.840000 Y37.200000 E162.305158
G1 F1200 X45.040000 Y37.200000 E163.104166
G1 F1200 X45.040000 Y65.200000 E164.435846
G1 F1200 X32.160000 Y65.200000 E165.048419
G1 F1200 X32.160000 Y25.440000 E166.939405
G1 F1200 X43.920000 Y25.440000 E167.498710
G1 F1200 X43.920000 Y29.920000 E167.711779
G1 F1200 X60.720000 Y29.920000 E168.510787
G1 F1200 X60.720000 Y36.080000 E168.803757
G1 F1200 X43.920000 Y36.080000 E169.602765
G1 F1200 X43.920000 Y64.080000 E170.934445
G1 F1200 X33.280000 Y64.080000 E171.440483
G1 F1200 X33.280000 Y26.560000 E173.224934
G1 F1200 X42.800000 Y26.560000 E173.677706
G1 F1200 X42.800000 Y31.040000 E173.890774
G1 F1200 X59.600000 Y31.040000 E174.689782
G1 F1200 X59.600000 Y34.960000 E174.876218
G1 F1200 X42.800000 Y34.960000 E175.675226
G1 F1200 X42.800000 Y62.960000 E177.006906
G1 F1200 X34.400000 Y62.960000 E177.406410
G1 F1200 X34.400000 Y27.680000 E179.084326
G1 F1200 X41.680000 Y27.680000 E179.430563
G1 F1200 X41.680000 Y32.160000 E179.643632
G1 F1200 X58.480000 Y32.160000 E180.442640
G1 F1200 X58.480000 Y33.840000 E180.522541
G1 F1200 X41.680000 Y33.840000 E181.321549
G1 F1200 X41.680000 Y61.840000 E182.653229
G1 F1200 X35.520000 Y61.840000 E182.946198
G1 F1200 X35.520000 Y28.800000 E184.517581
G1 F1200 X40.560000 Y28.800000 E184.757283
G1 F1200 X40.560000 Y60.720000 E186.275398
G1 F1200 X36.640000 Y60.720000 E186.461834
G1 F1200 X36.640000 Y29.920000 E187.926682
G1 F1200 X39.440000 Y29.920000 E188.059850
G1 F1200 X39.440000 Y59.600000 E189.471430
G1 F1200 X37.760000 Y59.600000 E189.551331
G1 F1200 X37.760000 Y31.040000 E190.909645
G1 F1200 X38.320000 Y31.040000 E190.936278
G1 F1200 X38.320000 Y59.040000 E192.267958
G1 F1200 X38.880000 Y59.040000 E192.294592
G1 F1200 X38.880000 Y30.480000 E193.652906
G1 F1200 X37.200000 Y30.480000 E193.732806
G1 F1200 X37.200000 Y60.160000 E195.144387
G1 F1200 X40.000000 Y60.160000 E195.277555
G1 F1200 X40.000000 Y29.360000 E196.742403
G1 F1200 X36.080000 Y29.360000 E196.928838
G1 F1200 X36.080000 Y61.280000 E198.446954
G1 F1200 X41.120000 Y61.280000 E198.686656
G1 F1200 X41.120000 Y33.280000 E200.018336
G1 F1200 X57.920000 Y33.280000 E200.817344
G1 F1200 X57.920000 Y32.720000 E200.843978
G1 F1200 X41.120000 Y32.720000 E201.642986
G1 F1200 X41.120000 Y28.240000 E201.856054
G1 F1200 X34.960000 Y28.240000 E202.149024
G1 F1200 X34.960000 Y62.400000 E203.773674
G1 F1200 X42.240000 Y62.400000 E204.119910
G1 F1200 X42.240000 Y34.400000 E205.451590
G1 F1200 X59.040000 Y34.400000 E206.250598
G1 F1200 X59.040000 Y31.600000 E206.383766
G1 F1200 X42.240000 Y31.600000 E207.182774
G1 F1200 X42.240000 Y27.120000 E207.395843
G1 F1200 X33.840000 Y27.120000 E207.795347
G1 F1200 X33.840000 Y63.520000 E209.526531
G1 F1200 X43.360000 Y63.520000 E209.979302
G1 F1200 X43.360000 Y35.520000 E211.310982
G1 F1200 X60.160000 Y35.520000 E212.109990
G1 F1200 X60.160000 Y30.480000 E212.349693
G1 F1200 X43.360000 Y30.480000 E213.148701
G1 F1200 X43.360000 Y26.000000 E213.361770
G1 F1200 X32.720000 Y26.000000 E213.867808
G1 F1200 X32.720000 Y64.640000 E215.705526
G1 F1200 X44.480000 Y64.640000 E216.264832
G1 F1200 X44.480000 Y36.640000 E217.596512
G1 F1200 X61.280000 Y36.640000 E218.395520
G1 F1200 X61.280000 Y29.360000 E218.741757
G1 F1200 X44.480000 Y29.360000 E219.540765
G1 F1200 X44.480000 Y24.880000 E219.753834
G1 F1200 X31.600000 Y24.880000 E220.366406
G1 F1200 X31.600000 Y65.760000 E222.310659
G1 F1200 X45.600000 Y65.760000 E222.976499
G1 F1200 X45.600000 Y37.760000 E224.308179
G1 F1200 X62.400000 Y37.760000 E225.107187
G1 F1200 X62.400000 Y28.240000 E225.559958
G1 F1200 X45.600000 Y28.240000 E226.358966
G1 F1200 X45.600000 Y23.760000 E226.572035
G1 F1200 X30.480000 Y23.760000 E227.291142
G1 F1200 X30.480000 Y66.320000 E229.315296
G1 F1200 X19.280000 Y66.320000 E229.847968
G1 F1200 X19.280000 Y66.880000 E229.874602
G1 F1200 X46.720000 Y66.880000 E231.179648
G1 F1200 X46.720000 Y38.880000 E232.511328
G1 F1200 X63.520000 Y38.880000 E233.310336
G1 F1200 X63.520000 Y27.120000 E233.869642
G1 F1200 X46.720000 Y27.120000 E234.668650
G1 F1200 X46.720000 Y22.640000 E234.881718
G1 F1200 X29.360000 Y22.640000 E235.707360
G1 F1200 X29.360000 Y65.200000 E237.731514
G1 F1200 X18.160000 Y65.200000 E238.264186
G1 F1200 X18.160000 Y68.000000 E238.397354
G1 F1200 X47.840000 Y68.000000 E239.808934
G1 F1200 X47.840000 Y40.000000 E241.140614
G1 F1200 X64.640000 Y40.000000 E241.939622
G1 F1200 X64.640000 Y26.000000 E242.605462
G1 F1200 X47.840000 Y26.000000 E243.404470
G1 F1200 X47.840000 Y21.520000 E243.617539
G1 F1200 X28.240000 Y21.520000 E244.549715
G1 F1200 X28.240000 Y64.080000 E246.573869
G1 F1200 X17.040000 Y64.080000 E247.106541
G1 F1200 X17.040000 Y69.120000 E247.346243
G1 F1200 X69.120000 Y69.120000 E249.823168
G1 F1200 X69.120000 Y47.560000 E250.848562
G1 F1200 X68.560000 Y47.560000 E250.875195
G1 F1200 X68.560000 Y68.560000 E251.873955
G1 F1200 X48.960000 Y68.560000 E252.806131
G1 F1200 X48.960000 Y46.720000 E253.844842
G1 F1200 X67.440000 Y46.720000 E254.723750
G1 F1200 X67.440000 Y67.440000 E255.709194
G1 F1200 X50.080000 Y67.440000 E256.534835
G1 F1200 X50.080000 Y47.840000 E257.467011
G1 F1200 X66.320000 Y47.840000 E258.239386
G1 F1200 X66.320000 Y66.320000 E259.118294
G1 F1200 X51.200000 Y66.320000 E259.837402
G1 F1200 X51.200000 Y48.960000 E260.663043
G1 F1200 X65.200000 Y48.960000 E261.328883
G1 F1200 X65.200000 Y65.200000 E262.101258
G1 F1200 X52.320000 Y65.200000 E262.713830
G1 F1200 X52.320000 Y50.080000 E263.432938
G1 F1200 X64.080000 Y50.080000 E263.992243
G1 F1200 X64.080000 Y64.080000 E264.658083
G1 F1200 X53.440000 Y64.080000 E265.164122
G1 F1200 X53.440000 Y51.200000 E265.776694
G1 F1200 X62.960000 Y51.200000 E266.229466
G1 F1200 X62.960000 Y62.960000 E266.788771
G1 F1200 X54.560000 Y62.960000 E267.188275
G1 F1200 X54.560000 Y52.320000 E267.694314
G1 F1200 X61.840000 Y52.320000 E268.040550
G1 F1200 X61.840000 Y61.840000 E268.493322
G1 F1200 X55.680000 Y61.840000 E268.786291
G1 F1200 X55.680000 Y53.440000 E269.185795
G1 F1200 X60.720000 Y53.440000 E269.425498
G1 F1200 X60.720000 Y60.720000 E269.771734
G1 F1200 X56.800000 Y60.720000 E269.958170
G1 F1200 X56.800000 Y54.560000 E270.251139
G1 F1200 X59.600000 Y54.560000 E270.384307
G1 F1200 X59.600000 Y59.600000 E270.624010
G1 F1200 X57.920000 Y59.600000 E270.703910
G1 F1200 X57.920000 Y55.680000 E270.890346
G1 F1200 X58.480000 Y55.680000 E270.916979
G1 F1200 X58.480000 Y59.040000 E271.076781
G1 F1200 X59.040000 Y59.040000 E271.103414
G1 F1200 X59.040000 Y55.120000 E271.289850
G1 F1200 X57.360000 Y55.120000 E271.369750
