;FLAVOR:Marlin
;Generated with Cura_SteamEngine 4.10.0
M140 S50
M105
M190 S50
M104 S210
M105
M109 S210
M82 ;absolute extrusion mode
M201 X500.00 Y500.00 Z100.00 E5000.00 ;Setup machine max acceleration
M203 X500.00 Y500.00 Z10.00 E50.00 ;Setup machine max feedrate
M204 P500.00 R1000.00 T500.00 ;Setup Print/Retract/Travel acceleration
M205 X8.00 Y8.00 Z0.40 E5.00 ;Setup Jerk
M220 S100 ;Reset Feedrate
M221 S100 ;Reset Flowrate
G28 ;Home
G92 E0
G92 E0
G1 F2700 E-5
M107
G1 F4800 E0.00000
;TYPE:WALL-OUTPE
;TYPE:FILL
G1 F4800 E-2.000000
G0 X8.720000 Y-4.720000
G1 F4800 E0.000000
G1 F1200 X50.440000 Y-4.720000 E1.984203
G1 F1200 X51.070711 Y-4.090711 E2.013836
G1 F1200 X51.701421 Y-3.461421 E2.043470
G1 F1200 X52.261421 Y-2.901421 E2.069810
G1 F1200 X52.821421 Y-2.341421 E2.096151
G1 F1200 X53.381421 Y-1.781421 E2.122491
G1 F1200 X53.941421 Y-1.221421 E2.148832
G1 F1200 X54.501421 Y-0.661421 E2.175172
G1 F1200 X55.061421 Y-0.101421 E2.201513
G1 F1200 X55.621421 Y0.458579 E2.227854
G1 F1200 X56.181421 Y1.018579 E2.254194
G1 F1200 X56.741421 Y1.578579 E2.280535
G1 F1200 X57.301421 Y2.138579 E2.306875
G1 F1200 X57.861421 Y2.698579 E2.333216
G1 F1200 X58.421421 Y3.258579 E2.359556
G1 F1200 X58.981421 Y3.818579 E2.385897
G1 F1200 X59.541421 Y4.378579 E2.412238
G1 F1200 X60.101421 Y4.938579 E2.438578
G1 F1200 X60.661421 Y5.498579 E2.464919
G1 F1200 X61.221421 Y6.058579 E2.491259
G1 F1200 X61.781421 Y6.618579 E2.517600
G1 F1200 X62.341421 Y7.178579 E2.543940
G1 F1200 X62.901421 Y7.738579 E2.570281
G1 F1200 X63.530711 Y8.369289 E2.599914
G1 F1200 X64.160000 Y9.000000 E2.629547
G1 F1200 X64.160000 Y51.560000 E4.653701
G1 F1200 X63.530711 Y52.190711 E4.683334
G1 F1200 X62.901421 Y52.821421 E4.712967
G1 F1200 X62.341421 Y53.381421 E4.739308
G1 F1200 X61.781421 Y53.941421 E4.765648
G1 F1200 X61.221421 Y54.501421 E4.791989
G1 F1200 X60.661421 Y55.061421 E4.818330
G1 F1200 X60.101421 Y55.621421 E4.844670
G1 F1200 X59.541421 Y56.181421 E4.871011
G1 F1200 X58.981421 Y56.741421 E4.897351
G1 F1200 X58.421421 Y57.301421 E4.923692
G1 F1200 X57.861421 Y57.861421 E4.950033
G1 F1200 X57.301421 Y58.421421 E4.976373
G1 F1200 X56.741421 Y58.981421 E5.002714
G1 F1200 X56.181421 Y59.541421 E5.029054
G1 F1200 X55.621421 Y60.101421 E5.055395
G1 F1200 X55.061421 Y60.661421 E5.081735
G1 F1200 X54.501421 Y61.221421 E5.108076
G1 F1200 X53.941421 Y61.781421 E5.134417
G1 F1200 X53.381421 Y62.341421 E5.160757
G1 F1200 X52.821421 Y62.901421 E5.187098
G1 F1200 X52.190711 Y63.530711 E5.216731
G1 F1200 X51.560000 Y64.160000 E5.246364
G1 F1200 X9.000000 Y64.160000 E7.270518
G1 F1200 X8.369289 Y63.530711 E7.300151
G1 F1200 X7.738579 Y62.901421 E7.329784
G1 F1200 X7.178579 Y62.341421 E7.356125
G1 F1200 X6.618579 Y61.781421 E7.382465
G1 F1200 X6.058579 Y61.221421 E7.408806
G1 F1200 X5.498579 Y60.661421 E7.435146
G1 F1200 X4.938579 Y60.101421 E7.461487
G1 F1200 X4.378579 Y59.541421 E7.487827
G1 F1200 X3.818579 Y58.981421 E7.514168
G1 F1200 X3.258579 Y58.421421 E7.540509
G1 F1200 X2.698579 Y57.861421 E7.566849
G1 F1200 X2.138579 Y57.301421 E7.593190
G1 F1200 X1.578579 Y56.741421 E7.619530
G1 F1200 X1.018579 Y56.181421 E7.645871
G1 F1200 X0.458579 Y55.621421 E7.672211
G1 F1200 X-0.101421 Y55.061421 E7.698552
G1 F1200 X-0.661421 Y54.501421 E7.724893
G1 F1200 X-1.221421 Y53.941421 E7.751233
G1 F1200 X-1.781421 Y53.381421 E7.777574
G1 F1200 X-2.341421 Y52.821421 E7.803914
G1 F1200 X-2.901421 Y52.261421 E7.830255
G1 F1200 X-3.461421 Y51.701421 E7.856595
G1 F1200 X-4.090711 Y51.070711 E7.886229
G1 F1200 X-4.720000 Y50.440000 E7.915862
G1 F1200 X-4.720000 Y9.000000 E9.886748
G1 F1200 X-4.090711 Y8.369289 E9.916381
G1 F1200 X-3.461421 Y7.738579 E9.946015
G1 F1200 X-2.901421 Y7.178579 E9.972355
G1 F1200 X-2.341421 Y6.618579 E9.998696
G1 F1200 X-1.781421 Y6.058579 E10.025036
G1 F1200 X-1.221421 Y5.498579 E10.051377
G1 F1200 X-0.661421 Y4.938579 E10.077717
G1 F1200 X-0.101421 Y4.378579 E10.104058
G1 F1200 X0.458579 Y3.818579 E10.130399
G1 F1200 X1.018579 Y3.258579 E10.156739
G1 F1200 X1.578579 Y2.698579 E10.183080
G1 F1200 X2.138579 Y2.138579 E10.209420
G1 F1200 X2.698579 Y1.578579 E10.235761
G1 F1200 X3.258579 Y1.018579 E10.262101
G1 F1200 X3.818579 Y0.458579 E10.288442
G1 F1200 X4.378579 Y-0.101421 E10.314783
G1 F1200 X4.938579 Y-0.661421 E10.341123
G1 F1200 X5.498579 Y-1.221421 E10.367464
G1 F1200 X6.058579 Y-1.781421 E10.393804
G1 F1200 X6.618579 Y-2.341421 E10.420145
G1 F1200 X7.249289 Y-2.970711 E10.449778
G1 F1200 X7.880000 Y-3.600000 E10.479411
G1 F1200 X50.440000 Y-3.600000 E12.503565
G1 F1200 X51.070711 Y-2.970711 E12.533198
G1 F1200 X51.701421 Y-2.341421 E12.562831
G1 F1200 X52.261421 Y-1.781421 E12.589172
G1 F1200 X52.821421 Y-1.221421 E12.615512
G1 F1200 X53.381421 Y-0.661421 E12.641853
G1 F1200 X53.941421 Y-0.101421 E12.668193
G1 F1200 X54.501421 Y0.458579 E12.694534
G1 F1200 X55.061421 Y1.018579 E12.720875
G1 F1200 X55.621421 Y1.578579 E12.747215
G1 F1200 X56.181421 Y2.138579 E12.773556
G1 F1200 X56.741421 Y2.698579 E12.799896
G1 F1200 X57.301421 Y3.258579 E12.826237
G1 F1200 X57.861421 Y3.818579 E12.852578
G1 F1200 X58.421421 Y4.378579 E12.878918
G1 F1200 X58.981421 Y4.938579 E12.905259
G1 F1200 X59.541421 Y5.498579 E12.931599
G1 F1200 X60.101421 Y6.058579 E12.957940
G1 F1200 X60.661421 Y6.618579 E12.984280
G1 F1200 X61.221421 Y7.178579 E13.010621
G1 F1200 X61.781421 Y7.738579 E13.036962
G1 F1200 X62.410711 Y8.369289 E13.066595
G1 F1200 X63.040000 Y9.000000 E13.096228
G1 F1200 X63.040000 Y51.560000 E15.120381
G1 F1200 X62.410711 Y52.190711 E15.150015
G1 F1200 X61.781421 Y52.821421 E15.179648
G1 F1200 X61.221421 Y53.381421 E15.205988
G1 F1200 X60.661421 Y53.941421 E15.232329
G1 F1200 X60.101421 Y54.501421 E15.258670
G1 F1200 X59.541421 Y55.061421 E15.285010
G1 F1200 X58.981421 Y55.621421 E15.311351
G1 F1200 X58.421421 Y56.181421 E15.337691
G1 F1200 X57.861421 Y56.741421 E15.364032
G1 F1200 X57.301421 Y57.301421 E15.390372
G1 F1200 X56.741421 Y57.861421 E15.416713
G1 F1200 X56.181421 Y58.421421 E15.443054
G1 F1200 X55.621421 Y58.981421 E15.469394
G1 F1200 X55.061421 Y59.541421 E15.495735
G1 F1200 X54.501421 Y60.101421 E15.522075
G1 F1200 X53.941421 Y60.661421 E15.548416
G1 F1200 X53.381421 Y61.221421 E15.574756
G1 F1200 X52.821421 Y61.781421 E15.601097
G1 F1200 X52.190711 Y62.410711 E15.630730
G1 F1200 X51.560000 Y63.040000 E15.660363
G1 F1200 X9.000000 Y63.040000 E17.684517
G1 F1200 X8.369289 Y62.410711 E17.714150
G1 F1200 X7.738579 Y61.781421 E17.743783
G1 F1200 X7.178579 Y61.221421 E17.770124
G1 F1200 X6.618579 Y60.661421 E17.796464
G1 F1200 X6.058579 Y60.101421 E17.822805
G1 F1200 X5.498579 Y59.541421 E17.849146
G1 F1200 X4.938579 Y58.981421 E17.875486
G1 F1200 X4.378579 Y58.421421 E17.901827
G1 F1200 X3.818579 Y57.861421 E17.928167
G1 F1200 X3.258579 Y57.301421 E17.954508
G1 F1200 X2.698579 Y56.741421 E17.980849
G1 F1200 X2.138579 Y56.181421 E18.007189
G1 F1200 X1.578579 Y55.621421 E18.033530
G1 F1200 X1.018579 Y55.061421 E18.059870
G1 F1200 X0.458579 Y54.501421 E18.086211
G1 F1200 X-0.101421 Y53.941421 E18.112551
G1 F1200 X-0.661421 Y53.381421 E18.138892
G1 F1200 X-1.221421 Y52.821421 E18.165233
G1 F1200 X-1.781421 Y52.261421 E18.191573
G1 F1200 X-2.341421 Y51.701421 E18.217914
G1 F1200 X-2.970711 Y51.070711 E18.247547
G1 F1200 X-3.600000 Y50.440000 E18.277180
G1 F1200 X-3.600000 Y9.000000 E20.248066
G1 F1200 X-2.970711 Y8.369289 E20.277700
G1 F1200 X-2.341421 Y7.738579 E20.307333
G1 F1200 X-1.781421 Y7.178579 E20.333673
G1 F1200 X-1.221421 Y6.618579 E20.360014
G1 F1200 X-0.661421 Y6.058579 E20.386354
G1 F1200 X-0.101421 Y5.498579 E20.412695
G1 F1200 X0.458579 Y4.938579 E20.439036
G1 F1200 X1.018579 Y4.378579 E20.465376
G1 F1200 X1.578579 Y3.818579 E20.491717
G1 F1200 X2.138579 Y3.258579 E20.518057
G1 F1200 X2.698579 Y2.698579 E20.544398
G1 F1200 X3.258579 Y2.138579 E20.570739
G1 F1200 X3.818579 Y1.578579 E20.597079
G1 F1200 X4.378579 Y1.018579 E20.623420
G1 F1200 X4.938579 Y0.458579 E20.649760
G1 F1200 X5.498579 Y-0.101421 E20.676101
G1 F1200 X6.058579 Y-0.661421 E20.702441
G1 F1200 X6.618579 Y-1.221421 E20.728782
G1 F1200 X7.249289 Y-1.850711 E20.758415
G1 F1200 X7.880000 Y-2.480000 E20.788048
G1 F1200 X50.440000 Y-2.480000 E22.812202
G1 F1200 X51.070711 Y-1.850711 E22.841835
G1 F1200 X51.701421 Y-1.221421 E22.871468
G1 F1200 X52.261421 Y-0.661421 E22.897809
G1 F1200 X52.821421 Y-0.101421 E22.924149
G1 F1200 X53.381421 Y0.458579 E22.950490
G1 F1200 X53.941421 Y1.018579 E22.976831
G1 F1200 X54.501421 Y1.578579 E23.003171
G1 F1200 X55.061421 Y2.138579 E23.029512
G1 F1200 X55.621421 Y2.698579 E23.055852
G1 F1200 X56.181421 Y3.258579 E23.082193
G1 F1200 X56.741421 Y3.818579 E23.108533
G1 F1200 X57.301421 Y4.378579 E23.134874
G1 F1200 X57.861421 Y4.938579 E23.161215
G1 F1200 X58.421421 Y5.498579 E23.187555
G1 F1200 X58.981421 Y6.058579 E23.213896
G1 F1200 X59.541421 Y6.618579 E23.240236
G1 F1200 X60.101421 Y7.178579 E23.266577
G1 F1200 X60.661421 Y7.738579 E23.292917
G1 F1200 X61.290711 Y8.369289 E23.322551
G1 F1200 X61.920000 Y9.000000 E23.352184
G1 F1200 X61.920000 Y51.560000 E25.376337
G1 F1200 X61.290711 Y52.190711 E25.405971
G1 F1200 X60.661421 Y52.821421 E25.435604
G1 F1200 X60.101421 Y53.381421 E25.461944
G1 F1200 X59.541421 Y53.941421 E25.488285
G1 F1200 X58.981421 Y54.501421 E25.514625
G1 F1200 X58.421421 Y55.061421 E25.540966
G1 F1200 X57.861421 Y55.621421 E25.567307
G1 F1200 X57.301421 Y56.181421 E25.593647
G1 F1200 X56.741421 Y56.741421 E25.619988
G1 F1200 X56.181421 Y57.301421 E25.646328
G1 F1200 X55.621421 Y57.861421 E25.672669
G1 F1200 X55.061421 Y58.421421 E25.699009
G1 F1200 X54.501421 Y58.981421 E25.725350
G1 F1200 X53.941421 Y59.541421 E25.751691
G1 F1200 X53.381421 Y60.101421 E25.778031
G1 F1200 X52.821421 Y60.661421 E25.804372
G1 F1200 X52.190711 Y61.290711 E25.834005
G1 F1200 X51.560000 Y61.920000 E25.863638
G1 F1200 X9.000000 Y61.920000 E27.887792
G1 F1200 X8.369289 Y61.290711 E27.917425
G1 F1200 X7.738579 Y60.661421 E27.947058
G1 F1200 X7.178579 Y60.101421 E27.973399
G1 F1200 X6.618579 Y59.541421 E27.999739
G1 F1200 X6.058579 Y58.981421 E28.026080
G1 F1200 X5.498579 Y58.421421 E28.052420
G1 F1200 X4.938579 Y57.861421 E28.078761
G1 F1200 X4.378579 Y57.301421 E28.105102
G1 F1200 X3.818579 Y56.741421 E28.131442
G1 F1200 X3.258579 Y56.181421 E28.157783
G1 F1200 X2.698579 Y55.621421 E28.184123
G1 F1200 X2.138579 Y55.061421 E28.210464
G1 F1200 X1.578579 Y54.501421 E28.236804
G1 F1200 X1.018579 Y53.941421 E28.263145
G1 F1200 X0.458579 Y53.381421 E28.289486
G1 F1200 X-0.101421 Y52.821421 E28.315826
G1 F1200 X-0.661421 Y52.261421 E28.342167
G1 F1200 X-1.221421 Y51.701421 E28.368507
G1 F1200 X-1.850711 Y51.070711 E28.398140
G1 F1200 X-2.480000 Y50.440000 E28.427774
G1 F1200 X-2.480000 Y9.000000 E30.398660
G1 F1200 X-1.850711 Y8.369289 E30.428293
G1 F1200 X-1.221421 Y7.738579 E30.457926
G1 F1200 X-0.661421 Y7.178579 E30.484267
G1 F1200 X-0.101421 Y6.618579 E30.510607
G1 F1200 X0.458579 Y6.058579 E30.536948
G1 F1200 X1.018579 Y5.498579 E30.563289
G1 F1200 X1.578579 Y4.938579 E30.589629
G1 F1200 X2.138579 Y4.378579 E30.615970
G1 F1200 X2.698579 Y3.818579 E30.642310
G1 F1200 X3.258579 Y3.258579 E30.668651
G1 F1200 X3.818579 Y2.698579 E30.694992
G1 F1200 X4.378579 Y2.138579 E30.721332
G1 F1200 X4.938579 Y1.578579 E30.747673
G1 F1200 X5.498579 Y1.018579 E30.774013
G1 F1200 X6.058579 Y0.458579 E30.800354
G1 F1200 X6.618579 Y-0.101421 E30.826694
G1 F1200 X7.249289 Y-0.730711 E30.856328
G1 F1200 X7.880000 Y-1.360000 E30.885961
G1 F1200 X50.440000 Y-1.360000 E32.910114
G1 F1200 X51.070711 Y-0.730711 E32.939748
G1 F1200 X51.701421 Y-0.101421 E32.969381
G1 F1200 X52.261421 Y0.458579 E32.995721
G1 F1200 X52.821421 Y1.018579 E33.022062
G1 F1200 X53.381421 Y1.578579 E33.048402
G1 F1200 X53.941421 Y2.138579 E33.074743
G1 F1200 X54.501421 Y2.698579 E33.101084
G1 F1200 X55.061421 Y3.258579 E33.127424
G1 F1200 X55.621421 Y3.818579 E33.153765
G1 F1200 X56.181421 Y4.378579 E33.180105
G1 F1200 X56.741421 Y4.938579 E33.206446
G1 F1200 X57.301421 Y5.498579 E33.232786
G1 F1200 X57.861421 Y6.058579 E33.259127
G1 F1200 X58.421421 Y6.618579 E33.285468
G1 F1200 X58.981421 Y7.178579 E33.311808
G1 F1200 X59.541421 Y7.738579 E33.338149
G1 F1200 X60.170711 Y8.369289 E33.367782
G1 F1200 X60.800000 Y9.000000 E33.397415
G1 F1200 X60.800000 Y51.560000 E35.421569
G1 F1200 X60.170711 Y52.190711 E35.451202
G1 F1200 X59.541421 Y52.821421 E35.480835
G1 F1200 X58.981421 Y53.381421 E35.507176
G1 F1200 X58.421421 Y53.941421 E35.533516
G1 F1200 X57.861421 Y54.501421 E35.559857
G1 F1200 X57.301421 Y55.061421 E35.586197
G1 F1200 X56.741421 Y55.621421 E35.612538
G1 F1200 X56.181421 Y56.181421 E35.638878
G1 F1200 X55.621421 Y56.741421 E35.665219
G1 F1200 X55.061421 Y57.301421 E35.691560
G1 F1200 X54.501421 Y57.861421 E35.717900
G1 F1200 X53.941421 Y58.421421 E35.744241
G1 F1200 X53.381421 Y58.981421 E35.770581
G1 F1200 X52.821421 Y59.541421 E35.796922
G1 F1200 X52.190711 Y60.170711 E35.826555
G1 F1200 X51.560000 Y60.800000 E35.856188
G1 F1200 X9.000000 Y60.800000 E37.880342
G1 F1200 X8.369289 Y60.170711 E37.909975
G1 F1200 X7.738579 Y59.541421 E37.939608
G1 F1200 X7.178579 Y58.981421 E37.965949
G1 F1200 X6.618579 Y58.421421 E37.992289
G1 F1200 X6.058579 Y57.861421 E38.018630
G1 F1200 X5.498579 Y57.301421 E38.044970
G1 F1200 X4.938579 Y56.741421 E38.071311
G1 F1200 X4.378579 Y56.181421 E38.097652
G1 F1200 X3.818579 Y55.621421 E38.123992
G1 F1200 X3.258579 Y55.061421 E38.150333
G1 F1200 X2.698579 Y54.501421 E38.176673
G1 F1200 X2.138579 Y53.941421 E38.203014
G1 F1200 X1.578579 Y53.381421 E38.229355
G1 F1200 X1.018579 Y52.821421 E38.255695
G1 F1200 X0.458579 Y52.261421 E38.282036
G1 F1200 X-0.101421 Y51.701421 E38.308376
G1 F1200 X-0.730711 Y51.070711 E38.338009
G1 F1200 X-1.360000 Y50.440000 E38.367643
G1 F1200 X-1.360000 Y9.000000 E40.338529
G1 F1200 X-0.730711 Y8.369289 E40.368162
G1 F1200 X-0.101421 Y7.738579 E40.397795
G1 F1200 X0.458579 Y7.178579 E40.424136
G1 F1200 X1.018579 Y6.618579 E40.450476
G1 F1200 X1.578579 Y6.058579 E40.476817
G1 F1200 X2.138579 Y5.498579 E40.503158
G1 F1200 X2.698579 Y4.938579 E40.529498
G1 F1200 X3.258579 Y4.378579 E40.555839
G1 F1200 X3.818579 Y3.818579 E40.582179
G1 F1200 X4.378579 Y3.258579 E40.608520
G1 F1200 X4.938579 Y2.698579 E40.634861
G1 F1200 X5.498579 Y2.138579 E40.661201
G1 F1200 X6.058579 Y1.578579 E40.687542
G1 F1200 X6.618579 Y1.018579 E40.713882
G1 F1200 X7.249289 Y0.389289 E40.743515
G1 F1200 X7.880000 Y-0.240000 E40.773149
G1 F1200 X50.440000 Y-0.240000 E42.797302
G1 F1200 X51.070711 Y0.389289 E42.826935
G1 F1200 X51.701421 Y1.018579 E42.856569
G1 F1200 X52.261421 Y1.578579 E42.882909
G1 F1200 X52.821421 Y2.138579 E42.909250
G1 F1200 X53.381421 Y2.698579 E42.935590
G1 F1200 X53.941421 Y3.258579 E42.961931
G1 F1200 X54.501421 Y3.818579 E42.988271
G1 F1200 X55.061421 Y4.378579 E43.014612
G1 F1200 X55.621421 Y4.938579 E43.040953
G1 F1200 X56.181421 Y5.498579 E43.067293
G1 F1200 X56.741421 Y6.058579 E43.093634
G1 F1200 X57.301421 Y6.618579 E43.119974
G1 F1200 X57.861421 Y7.178579 E43.146315
G1 F1200 X58.421421 Y7.738579 E43.172655
G1 F1200 X59.050711 Y8.369289 E43.202289
G1 F1200 X59.680000 Y9.000000 E43.231922
G1 F1200 X59.680000 Y51.560000 E45.256075
G1 F1200 X59.050711 Y52.190711 E45.285709
G1 F1200 X58.421421 Y52.821421 E45.315342
G1 F1200 X57.861421 Y53.381421 E45.341682
G1 F1200 X57.301421 Y53.941421 E45.368023
G1 F1200 X56.741421 Y54.501421 E45.394363
G1 F1200 X56.181421 Y55.061421 E45.420704
G1 F1200 X55.621421 Y55.621421 E45.447045
G1 F1200 X55.061421 Y56.181421 E45.473385
G1 F1200 X54.501421 Y56.741421 E45.499726
G1 F1200 X53.941421 Y57.301421 E45.526066
G1 F1200 X53.381421 Y57.861421 E45.552407
G1 F1200 X52.821421 Y58.421421 E45.578747
G1 F1200 X52.190711 Y59.050711 E45.608381
G1 F1200 X51.560000 Y59.680000 E45.638014
G1 F1200 X9.000000 Y59.680000 E47.662167
G1 F1200 X8.369289 Y59.050711 E47.691801
G1 F1200 X7.738579 Y58.421421 E47.721434
G1 F1200 X7.178579 Y57.861421 E47.747774
G1 F1200 X6.618579 Y57.301421 E47.774115
G1 F1200 X6.058579 Y56.741421 E47.800455
G1 F1200 X5.498579 Y56.181421 E47.826796
