;FLAVOR:Marlin
;Generated with Cura_SteamEngine 4.10.0
M140 S50
M105
M190 S50
M104 S210
M105
M109 S210
M82 ;absolute extrusion mode
M201 X500.00 Y500.00 Z100.00 E5000.00 ;Setup machine max acceleration
M203 X500.00 Y500.00 Z10.00 E50.00 ;Setup machine max feedrate
M204 P500.00 R1000.00 T500.00 ;Setup Print/Retract/Travel acceleration
M205 X8.00 Y8.00 Z0.40 E5.00 ;Setup Jerk
M220 S100 ;Reset Feedrate
M221 S100 ;Reset Flowrate
G28 ;Home
G92 E0
G92 E0
G1 F2700 E-5
M107
G1 F4800 E0.00000
;TYPE:WALL-OUTPE
;TYPE:FILL
G1 F4800 E-2.000000
G0 X-13.000000 Y-13.000000
G1 F4800 E0.000000
G1 F1200 X42.440000 Y-13.000000 E5.273453
G1 F1200 X41.461421 Y-12.018579 E5.365645
G1 F1200 X40.482843 Y-11.037157 E5.457837
G1 F1200 X39.922843 Y-10.477157 E5.510518
G1 F1200 X39.362843 Y-9.917157 E5.563199
G1 F1200 X38.802843 Y-9.357157 E5.615880
G1 F1200 X38.242843 Y-8.797157 E5.668562
G1 F1200 X37.682843 Y-8.237157 E5.721243
G1 F1200 X37.122843 Y-7.677157 E5.773924
G1 F1200 X36.562843 Y-7.117157 E5.826605
G1 F1200 X36.002843 Y-6.557157 E5.879286
G1 F1200 X35.442843 Y-5.997157 E5.931967
G1 F1200 X34.882843 Y-5.437157 E5.984649
G1 F1200 X34.322843 Y-4.877157 E6.037330
G1 F1200 X33.762843 Y-4.317157 E6.090011
G1 F1200 X33.202843 Y-3.757157 E6.142692
G1 F1200 X32.642843 Y-3.197157 E6.195373
G1 F1200 X32.082843 Y-2.637157 E6.248054
G1 F1200 X31.522843 Y-2.077157 E6.300735
G1 F1200 X30.962843 Y-1.517157 E6.353417
G1 F1200 X30.402843 Y-0.957157 E6.406098
G1 F1200 X29.842843 Y-0.397157 E6.458779
G1 F1200 X29.282843 Y0.162843 E6.511460
G1 F1200 X28.722843 Y0.722843 E6.564141
G1 F1200 X28.162843 Y1.282843 E6.616822
G1 F1200 X27.602843 Y1.842843 E6.669504
G1 F1200 X27.042843 Y2.402843 E6.722185
G1 F1200 X26.482843 Y2.962843 E6.774866
G1 F1200 X25.922843 Y3.522843 E6.827547
G1 F1200 X25.362843 Y4.082843 E6.880228
G1 F1200 X24.802843 Y4.642843 E6.932909
G1 F1200 X24.242843 Y5.202843 E6.985590
G1 F1200 X23.682843 Y5.762843 E7.038272
G1 F1200 X23.122843 Y6.322843 E7.090953
G1 F1200 X22.562843 Y6.882843 E7.143634
G1 F1200 X22.002843 Y7.442843 E7.196315
G1 F1200 X21.442843 Y8.002843 E7.248996
G1 F1200 X20.882843 Y8.562843 E7.301677
G1 F1200 X20.322843 Y9.122843 E7.354359
G1 F1200 X19.762843 Y9.682843 E7.407040
G1 F1200 X19.202843 Y10.242843 E7.459721
G1 F1200 X18.642843 Y10.802843 E7.512402
G1 F1200 X18.082843 Y11.362843 E7.565083
G1 F1200 X17.522843 Y11.922843 E7.617764
G1 F1200 X16.962843 Y12.482843 E7.670445
G1 F1200 X16.402843 Y13.042843 E7.723127
G1 F1200 X15.842843 Y13.602843 E7.775808
G1 F1200 X15.282843 Y14.162843 E7.828489
G1 F1200 X14.722843 Y14.722843 E7.881170
G1 F1200 X14.162843 Y15.282843 E7.933851
G1 F1200 X13.602843 Y15.842843 E7.986532
G1 F1200 X13.042843 Y16.402843 E8.039213
G1 F1200 X12.482843 Y16.962843 E8.091895
G1 F1200 X11.922843 Y17.522843 E8.144576
G1 F1200 X11.362843 Y18.082843 E8.197257
G1 F1200 X10.802843 Y18.642843 E8.249938
G1 F1200 X10.242843 Y19.202843 E8.302619
G1 F1200 X9.682843 Y19.762843 E8.355300
G1 F1200 X9.122843 Y20.322843 E8.407982
G1 F1200 X8.562843 Y20.882843 E8.460663
G1 F1200 X8.002843 Y21.442843 E8.513344
G1 F1200 X7.442843 Y22.002843 E8.566025
G1 F1200 X6.882843 Y22.562843 E8.618706
G1 F1200 X6.322843 Y23.122843 E8.671387
G1 F1200 X5.762843 Y23.682843 E8.724068
G1 F1200 X5.202843 Y24.242843 E8.776750
G1 F1200 X4.642843 Y24.802843 E8.829431
G1 F1200 X4.082843 Y25.362843 E8.882112
G1 F1200 X3.522843 Y25.922843 E8.934793
G1 F1200 X2.962843 Y26.482843 E8.987474
G1 F1200 X2.402843 Y27.042843 E9.040155
G1 F1200 X1.842843 Y27.602843 E9.092837
G1 F1200 X1.282843 Y28.162843 E9.145518
G1 F1200 X0.722843 Y28.722843 E9.198199
G1 F1200 X0.162843 Y29.282843 E9.250880
G1 F1200 X-0.397157 Y29.842843 E9.303561
G1 F1200 X-0.957157 Y30.402843 E9.356242
G1 F1200 X-1.517157 Y30.962843 E9.408923
G1 F1200 X-2.077157 Y31.522843 E9.461605
G1 F1200 X-2.637157 Y32.082843 E9.514286
G1 F1200 X-3.197157 Y32.642843 E9.566967
G1 F1200 X-3.757157 Y33.202843 E9.619648
G1 F1200 X-4.317157 Y33.762843 E9.672329
G1 F1200 X-4.877157 Y34.322843 E9.725010
G1 F1200 X-5.437157 Y34.882843 E9.777692
G1 F1200 X-5.997157 Y35.442843 E9.830373
G1 F1200 X-6.557157 Y36.002843 E9.883054
G1 F1200 X-7.117157 Y36.562843 E9.935735
G1 F1200 X-7.677157 Y37.122843 E9.988416
G1 F1200 X-8.237157 Y37.682843 E10.041097
G1 F1200 X-8.797157 Y38.242843 E10.093778
G1 F1200 X-9.357157 Y38.802843 E10.146460
G1 F1200 X-9.917157 Y39.362843 E10.199141
G1 F1200 X-10.477157 Y39.922843 E10.251822
G1 F1200 X-11.037157 Y40.482843 E10.304503
G1 F1200 X-12.018579 Y41.461421 E10.396695
G1 F1200 X-13.000000 Y42.440000 E10.488887
G1 F1200 X-13.000000 Y-11.880000 E15.655806
G1 F1200 X40.200000 Y-11.880000 E20.716190
G1 F1200 X39.221421 Y-10.898579 E20.808382
G1 F1200 X38.242843 Y-9.917157 E20.900574
G1 F1200 X37.682843 Y-9.357157 E20.953255
G1 F1200 X37.122843 Y-8.797157 E21.005936
G1 F1200 X36.562843 Y-8.237157 E21.058617
G1 F1200 X36.002843 Y-7.677157 E21.111298
G1 F1200 X35.442843 Y-7.117157 E21.163980
G1 F1200 X34.882843 Y-6.557157 E21.216661
G1 F1200 X34.322843 Y-5.997157 E21.269342
G1 F1200 X33.762843 Y-5.437157 E21.322023
G1 F1200 X33.202843 Y-4.877157 E21.374704
G1 F1200 X32.642843 Y-4.317157 E21.427385
G1 F1200 X32.082843 Y-3.757157 E21.480067
G1 F1200 X31.522843 Y-3.197157 E21.532748
G1 F1200 X30.962843 Y-2.637157 E21.585429
G1 F1200 X30.402843 Y-2.077157 E21.638110
G1 F1200 X29.842843 Y-1.517157 E21.690791
G1 F1200 X29.282843 Y-0.957157 E21.743472
G1 F1200 X28.722843 Y-0.397157 E21.796153
G1 F1200 X28.162843 Y0.162843 E21.848835
G1 F1200 X27.602843 Y0.722843 E21.901516
G1 F1200 X27.042843 Y1.282843 E21.954197
G1 F1200 X26.482843 Y1.842843 E22.006878
G1 F1200 X25.922843 Y2.402843 E22.059559
G1 F1200 X25.362843 Y2.962843 E22.112240
G1 F1200 X24.802843 Y3.522843 E22.164922
G1 F1200 X24.242843 Y4.082843 E22.217603
G1 F1200 X23.682843 Y4.642843 E22.270284
G1 F1200 X23.122843 Y5.202843 E22.322965
G1 F1200 X22.562843 Y5.762843 E22.375646
G1 F1200 X22.002843 Y6.322843 E22.428327
G1 F1200 X21.442843 Y6.882843 E22.481008
G1 F1200 X20.882843 Y7.442843 E22.533690
G1 F1200 X20.322843 Y8.002843 E22.586371
G1 F1200 X19.762843 Y8.562843 E22.639052
G1 F1200 X19.202843 Y9.122843 E22.691733
G1 F1200 X18.642843 Y9.682843 E22.744414
G1 F1200 X18.082843 Y10.242843 E22.797095
G1 F1200 X17.522843 Y10.802843 E22.849777
G1 F1200 X16.962843 Y11.362843 E22.902458
G1 F1200 X16.402843 Y11.922843 E22.955139
G1 F1200 X15.842843 Y12.482843 E23.007820
G1 F1200 X15.282843 Y13.042843 E23.060501
G1 F1200 X14.722843 Y13.602843 E23.113182
G1 F1200 X14.162843 Y14.162843 E23.165863
G1 F1200 X13.602843 Y14.722843 E23.218545
G1 F1200 X13.042843 Y15.282843 E23.271226
G1 F1200 X12.482843 Y15.842843 E23.323907
G1 F1200 X11.922843 Y16.402843 E23.376588
G1 F1200 X11.362843 Y16.962843 E23.429269
G1 F1200 X10.802843 Y17.522843 E23.481950
G1 F1200 X10.242843 Y18.082843 E23.534632
G1 F1200 X9.682843 Y18.642843 E23.587313
G1 F1200 X9.122843 Y19.202843 E23.639994
G1 F1200 X8.562843 Y19.762843 E23.692675
G1 F1200 X8.002843 Y20.322843 E23.745356
G1 F1200 X7.442843 Y20.882843 E23.798037
G1 F1200 X6.882843 Y21.442843 E23.850718
G1 F1200 X6.322843 Y22.002843 E23.903400
G1 F1200 X5.762843 Y22.562843 E23.956081
G1 F1200 X5.202843 Y23.122843 E24.008762
G1 F1200 X4.642843 Y23.682843 E24.061443
G1 F1200 X4.082843 Y24.242843 E24.114124
G1 F1200 X3.522843 Y24.802843 E24.166805
G1 F1200 X2.962843 Y25.362843 E24.219486
G1 F1200 X2.402843 Y25.922843 E24.272168
G1 F1200 X1.842843 Y26.482843 E24.324849
G1 F1200 X1.282843 Y27.042843 E24.377530
G1 F1200 X0.722843 Y27.602843 E24.430211
G1 F1200 X0.162843 Y28.162843 E24.482892
G1 F1200 X-0.397157 Y28.722843 E24.535573
G1 F1200 X-0.957157 Y29.282843 E24.588255
G1 F1200 X-1.517157 Y29.842843 E24.640936
G1 F1200 X-2.077157 Y30.402843 E24.693617
G1 F1200 X-2.637157 Y30.962843 E24.746298
G1 F1200 X-3.197157 Y31.522843 E24.798979
G1 F1200 X-3.757157 Y32.082843 E24.851660
G1 F1200 X-4.317157 Y32.642843 E24.904341
G1 F1200 X-4.877157 Y33.202843 E24.957023
G1 F1200 X-5.437157 Y33.762843 E25.009704
G1 F1200 X-5.997157 Y34.322843 E25.062385
G1 F1200 X-6.557157 Y34.882843 E25.115066
G1 F1200 X-7.117157 Y35.442843 E25.167747
G1 F1200 X-7.677157 Y36.002843 E25.220428
G1 F1200 X-8.237157 Y36.562843 E25.273110
G1 F1200 X-8.797157 Y37.122843 E25.325791
G1 F1200 X-9.357157 Y37.682843 E25.378472
G1 F1200 X-9.917157 Y38.242843 E25.431153
G1 F1200 X-10.898579 Y39.221421 E25.523345
G1 F1200 X-11.880000 Y40.200000 E25.615537
G1 F1200 X-11.880000 Y-10.760000 E30.462852
G1 F1200 X37.960000 Y-10.760000 E35.203633
G1 F1200 X36.981421 Y-9.778579 E35.295825
G1 F1200 X36.002843 Y-8.797157 E35.388017
G1 F1200 X35.442843 Y-8.237157 E35.440699
G1 F1200 X34.882843 Y-7.677157 E35.493380
G1 F1200 X34.322843 Y-7.117157 E35.546061
G1 F1200 X33.762843 Y-6.557157 E35.598742
G1 F1200 X33.202843 Y-5.997157 E35.651423
G1 F1200 X32.642843 Y-5.437157 E35.704104
G1 F1200 X32.082843 Y-4.877157 E35.756786
G1 F1200 X31.522843 Y-4.317157 E35.809467
G1 F1200 X30.962843 Y-3.757157 E35.862148
G1 F1200 X30.402843 Y-3.197157 E35.914829
G1 F1200 X29.842843 Y-2.637157 E35.967510
G1 F1200 X29.282843 Y-2.077157 E36.020191
G1 F1200 X28.722843 Y-1.517157 E36.072872
G1 F1200 X28.162843 Y-0.957157 E36.125554
G1 F1200 X27.602843 Y-0.397157 E36.178235
G1 F1200 X27.042843 Y0.162843 E36.230916
G1 F1200 X26.482843 Y0.722843 E36.283597
G1 F1200 X25.922843 Y1.282843 E36.336278
G1 F1200 X25.362843 Y1.842843 E36.388959
G1 F1200 X24.802843 Y2.402843 E36.441640
G1 F1200 X24.242843 Y2.962843 E36.494322
G1 F1200 X23.682843 Y3.522843 E36.547003
G1 F1200 X23.122843 Y4.082843 E36.599684
G1 F1200 X22.562843 Y4.642843 E36.652365
G1 F1200 X22.002843 Y5.202843 E36.705046
G1 F1200 X21.442843 Y5.762843 E36.757727
G1 F1200 X20.882843 Y6.322843 E36.810409
G1 F1200 X20.322843 Y6.882843 E36.863090
G1 F1200 X19.762843 Y7.442843 E36.915771
G1 F1200 X19.202843 Y8.002843 E36.968452
G1 F1200 X18.642843 Y8.562843 E37.021133
G1 F1200 X18.082843 Y9.122843 E37.073814
G1 F1200 X17.522843 Y9.682843 E37.126495
G1 F1200 X16.962843 Y10.242843 E37.179177
G1 F1200 X16.402843 Y10.802843 E37.231858
G1 F1200 X15.842843 Y11.362843 E37.284539
G1 F1200 X15.282843 Y11.922843 E37.337220
G1 F1200 X14.722843 Y12.482843 E37.389901
G1 F1200 X14.162843 Y13.042843 E37.442582
G1 F1200 X13.602843 Y13.602843 E37.495264
G1 F1200 X13.042843 Y14.162843 E37.547945
G1 F1200 X12.482843 Y14.722843 E37.600626
G1 F1200 X11.922843 Y15.282843 E37.653307
G1 F1200 X11.362843 Y15.842843 E37.705988
G1 F1200 X10.802843 Y16.402843 E37.758669
G1 F1200 X10.242843 Y16.962843 E37.811350
G1 F1200 X9.682843 Y17.522843 E37.864032
G1 F1200 X9.122843 Y18.082843 E37.916713
G1 F1200 X8.562843 Y18.642843 E37.969394
G1 F1200 X8.002843 Y19.202843 E38.022075
G1 F1200 X7.442843 Y19.762843 E38.074756
G1 F1200 X6.882843 Y20.322843 E38.127437
G1 F1200 X6.322843 Y20.882843 E38.180119
G1 F1200 X5.762843 Y21.442843 E38.232800
G1 F1200 X5.202843 Y22.002843 E38.285481
G1 F1200 X4.642843 Y22.562843 E38.338162
G1 F1200 X4.082843 Y23.122843 E38.390843
G1 F1200 X3.522843 Y23.682843 E38.443524
G1 F1200 X2.962843 Y24.242843 E38.496205
G1 F1200 X2.402843 Y24.802843 E38.548887
G1 F1200 X1.842843 Y25.362843 E38.601568
G1 F1200 X1.282843 Y25.922843 E38.654249
G1 F1200 X0.722843 Y26.482843 E38.706930
G1 F1200 X0.162843 Y27.042843 E38.759611
G1 F1200 X-0.397157 Y27.602843 E38.812292
G1 F1200 X-0.957157 Y28.162843 E38.864973
G1 F1200 X-1.517157 Y28.722843 E38.917655
G1 F1200 X-2.077157 Y29.282843 E38.970336
G1 F1200 X-2.637157 Y29.842843 E39.023017
G1 F1200 X-3.197157 Y30.402843 E39.075698
G1 F1200 X-3.757157 Y30.962843 E39.128379
G1 F1200 X-4.317157 Y31.522843 E39.181060
G1 F1200 X-4.877157 Y32.082843 E39.233742
G1 F1200 X-5.437157 Y32.642843 E39.286423
G1 F1200 X-5.997157 Y33.202843 E39.339104
G1 F1200 X-6.557157 Y33.762843 E39.391785
G1 F1200 X-7.117157 Y34.322843 E39.444466
G1 F1200 X-7.677157 Y34.882843 E39.497147
G1 F1200 X-8.237157 Y35.442843 E39.549828
G1 F1200 X-8.797157 Y36.002843 E39.602510
G1 F1200 X-9.778579 Y36.981421 E39.694702
G1 F1200 X-10.760000 Y37.960000 E39.786894
G1 F1200 X-10.760000 Y-9.640000 E44.314606
G1 F1200 X35.720000 Y-9.640000 E48.735783
G1 F1200 X34.741421 Y-8.658579 E48.827976
G1 F1200 X33.762843 Y-7.677157 E48.920168
G1 F1200 X33.202843 Y-7.117157 E48.972849
G1 F1200 X32.642843 Y-6.557157 E49.025530
G1 F1200 X32.082843 Y-5.997157 E49.078211
G1 F1200 X31.522843 Y-5.437157 E49.130892
G1 F1200 X30.962843 Y-4.877157 E49.183573
G1 F1200 X30.402843 Y-4.317157 E49.236255
G1 F1200 X29.842843 Y-3.757157 E49.288936
G1 F1200 X29.282843 Y-3.197157 E49.341617
G1 F1200 X28.722843 Y-2.637157 E49.394298
G1 F1200 X28.162843 Y-2.077157 E49.446979
G1 F1200 X27.602843 Y-1.517157 E49.499660
G1 F1200 X27.042843 Y-0.957157 E49.552341
G1 F1200 X26.482843 Y-0.397157 E49.605023
G1 F1200 X25.922843 Y0.162843 E49.657704
G1 F1200 X25.362843 Y0.722843 E49.710385
G1 F1200 X24.802843 Y1.282843 E49.763066
G1 F1200 X24.242843 Y1.842843 E49.815747
G1 F1200 X23.682843 Y2.402843 E49.868428
G1 F1200 X23.122843 Y2.962843 E49.921110
G1 F1200 X22.562843 Y3.522843 E49.973791
G1 F1200 X22.002843 Y4.082843 E50.026472
G1 F1200 X21.442843 Y4.642843 E50.079153
G1 F1200 X20.882843 Y5.202843 E50.131834
G1 F1200 X20.322843 Y5.762843 E50.184515
G1 F1200 X19.762843 Y6.322843 E50.237196
G1 F1200 X19.202843 Y6.882843 E50.289878
G1 F1200 X18.642843 Y7.442843 E50.342559
G1 F1200 X18.082843 Y8.002843 E50.395240
G1 F1200 X17.522843 Y8.562843 E50.447921
G1 F1200 X16.962843 Y9.122843 E50.500602
G1 F1200 X16.402843 Y9.682843 E50.553283
G1 F1200 X15.842843 Y10.242843 E50.605965
G1 F1200 X15.282843 Y10.802843 E50.658646
G1 F1200 X14.722843 Y11.362843 E50.711327
G1 F1200 X14.162843 Y11.922843 E50.764008
G1 F1200 X13.602843 Y12.482843 E50.816689
G1 F1200 X13.042843 Y13.042843 E50.869370
G1 F1200 X12.482843 Y13.602843 E50.922051
G1 F1200 X11.922843 Y14.162843 E50.974733
G1 F1200 X11.362843 Y14.722843 E51.027414
G1 F1200 X10.802843 Y15.282843 E51.080095
G1 F1200 X10.242843 Y15.842843 E51.132776
G1 F1200 X9.682843 Y16.402843 E51.185457
G1 F1200 X9.122843 Y16.962843 E51.238138
G1 F1200 X8.562843 Y17.522843 E51.290820
G1 F1200 X8.002843 Y18.082843 E51.343501
G1 F1200 X7.442843 Y18.642843 E51.396182
G1 F1200 X6.882843 Y19.202843 E51.448863
G1 F1200 X6.322843 Y19.762843 E51.501544
G1 F1200 X5.762843 Y20.322843 E51.554225
G1 F1200 X5.202843 Y20.882843 E51.606906
G1 F1200 X4.642843 Y21.442843 E51.659588
G1 F1200 X4.082843 Y22.002843 E51.712269
G1 F1200 X3.522843 Y22.562843 E51.764950
G1 F1200 X2.962843 Y23.122843 E51.817631
G1 F1200 X2.402843 Y23.682843 E51.870312
G1 F1200 X1.842843 Y24.242843 E51.922993
G1 F1200 X1.282843 Y24.802843 E51.975675
G1 F1200 X0.722843 Y25.362843 E52.028356
G1 F1200 X0.162843 Y25.922843 E52.081037
G1 F1200 X-0.397157 Y26.482843 E52.133718
G1 F1200 X-0.957157 Y27.042843 E52.186399
G1 F1200 X-1.517157 Y27.602843 E52.239080
G1 F1200 X-2.077157 Y28.162843 E52.291761
G1 F1200 X-2.637157 Y28.722843 E52.344443
G1 F1200 X-3.197157 Y29.282843 E52.397124
G1 F1200 X-3.757157 Y29.842843 E52.449805
G1 F1200 X-4.317157 Y30.402843 E52.502486
G1 F1200 X-4.877157 Y30.962843 E52.555167
G1 F1200 X-5.437157 Y31.522843 E52.607848
G1 F1200 X-5.997157 Y32.082843 E52.660529
G1 F1200 X-6.557157 Y32.642843 E52.713211
G1 F1200 X-7.117157 Y33.202843 E52.765892
G1 F1200 X-7.677157 Y33.762843 E52.818573
G1 F1200 X-8.658579 Y34.741421 E52.910765
G1 F1200 X-9.640000 Y35.720000 E53.002957
G1 F1200 X-9.640000 Y-8.520000 E57.211066
G1 F1200 X33.480000 Y-8.520000 E61.312640
G1 F1200 X32.501421 Y-7.538579 E61.404832
G1 F1200 X31.522843 Y-6.557157 E61.497025
G1 F1200 X30.962843 Y-5.997157 E61.549706
G1 F1200 X30.402843 Y-5.437157 E61.602387
G1 F1200 X29.842843 Y-4.877157 E61.655068
G1 F1200 X29.282843 Y-4.317157 E61.707749
G1 F1200 X28.722843 Y-3.757157 E61.760430
G1 F1200 X28.162843 Y-3.197157 E61.813112
G1 F1200 X27.602843 Y-2.637157 E61.865793
G1 F1200 X27.042843 Y-2.077157 E61.918474
G1 F1200 X26.482843 Y-1.517157 E61.971155
G1 F1200 X25.922843 Y-0.957157 E62.023836
G1 F1200 X25.362843 Y-0.397157 E62.076517
G1 F1200 X24.802843 Y0.162843 E62.129198
G1 F1200 X24.242843 Y0.722843 E62.181880
