;FLAVOR:Marlin
;Generated with Cura_SteamEngine 4.10.0
M140 S50
M105
M190 S50
M104 S210
M105
M109 S210
M82 ;absolute extrusion mode
M201 X500.00 Y500.00 Z100.00 E5000.00 ;Setup machine max acceleration
M203 X500.00 Y500.00 Z10.00 E50.00 ;Setup machine max feedrate
M204 P500.00 R1000.00 T500.00 ;Setup Print/Retract/Travel acceleration
M205 X8.00 Y8.00 Z0.40 E5.00 ;Setup Jerk
M220 S100 ;Reset Feedrate
M221 S100 ;Reset Flowrate
G28 ;Home
G92 E0
G92 E0
G1 F2700 E-5
M107
G1 F4800 E0.00000
;TYPE:WALL-OUTPE
;TYPE:FILL
G1 F4800 E-2.000000
G0 X15.200000 Y15.200000
G1 F4800 E0.000000
G1 F1200 X64.400001 Y15.200000 E1.636392
G1 F1200 X64.400001 Y59.600001 E3.113136
G1 F1200 X24.800000 Y59.600001 E4.430232
G1 F1200 X24.800000 Y30.400000 E5.401424
G1 F1200 X54.800001 Y30.400000 E6.399224
G1 F1200 X54.800001 Y51.600001 E7.104336
G1 F1200 X35.200000 Y51.600001 E7.756232
G1 F1200 X35.200000 Y40.800000 E8.115440
G1 F1200 X38.800000 Y40.800000 E8.235176
G1 F1200 X38.800000 Y47.200000 E8.448040
G1 F1200 X48.000000 Y47.200000 E8.754032
G1 F1200 X48.000000 Y31.200000 E9.286192
G1 F1200 X54.000001 Y31.200000 E9.485752
G1 F1200 X54.000001 Y50.800001 E10.137648
G1 F1200 X36.000000 Y50.800001 E10.736328
G1 F1200 X36.000000 Y41.600000 E11.042320
G1 F1200 X38.000000 Y41.600000 E11.108840
G1 F1200 X38.000000 Y48.000000 E11.321704
G1 F1200 X48.800001 Y48.000000 E11.680912
G1 F1200 X48.800001 Y32.000000 E12.213072
G1 F1200 X53.200001 Y32.000000 E12.359416
G1 F1200 X53.200001 Y50.000001 E12.958096
G1 F1200 X36.800000 Y50.000001 E13.503560
G1 F1200 X36.800000 Y42.400000 E13.756337
G1 F1200 X37.200000 Y42.400000 E13.769641
G1 F1200 X37.200000 Y49.600001 E14.009113
G1 F1200 X52.800001 Y49.600001 E14.527969
G1 F1200 X52.800001 Y32.400000 E15.100041
G1 F1200 X50.200001 Y32.400000 E15.186517
G1 F1200 X50.200001 Y32.800000 E15.199821
G1 F1200 X52.400001 Y32.800000 E15.272993
G1 F1200 X52.400001 Y49.200001 E15.818457
G1 F1200 X37.600000 Y49.200001 E16.310705
G1 F1200 X37.600000 Y48.800001 E16.324009
G1 F1200 X52.000001 Y48.800001 E16.802953
G1 F1200 X52.000001 Y33.200000 E17.321809
G1 F1200 X49.700001 Y33.200000 E17.398307
G1 F1200 X49.700001 Y33.600000 E17.411611
G1 F1200 X51.600001 Y33.600000 E17.474805
G1 F1200 X51.600001 Y48.400000 E17.967053
G1 F1200 X49.600001 Y48.400000 E18.033573
G1 F1200 X49.600001 Y34.400000 E18.499213
G1 F1200 X50.800001 Y34.400000 E18.539125
G1 F1200 X50.800001 Y47.600000 E18.978157
G1 F1200 X50.400001 Y47.600000 E18.991461
G1 F1200 X50.400001 Y34.800000 E19.417189
G1 F1200 X50.000001 Y34.800000 E19.430493
G1 F1200 X50.000001 Y48.000000 E19.869525
G1 F1200 X51.200001 Y48.000000 E19.909437
G1 F1200 X51.200001 Y34.000000 E20.375077
G1 F1200 X49.600001 Y34.000000 E20.428293
G1 F1200 X49.600001 Y32.800000 E20.468205
G1 F1200 X49.800001 Y32.800000 E20.474857
G1 F1200 X49.800001 Y32.400000 E20.488161
G1 F1200 X49.200001 Y32.400000 E20.508117
G1 F1200 X49.200001 Y48.400000 E21.040277
G1 F1200 X37.600000 Y48.400000 E21.426093
G1 F1200 X37.600000 Y42.000000 E21.638957
G1 F1200 X36.400000 Y42.000000 E21.678869
G1 F1200 X36.400000 Y50.400001 E21.958253
G1 F1200 X53.600001 Y50.400001 E22.530325
G1 F1200 X53.600001 Y31.600000 E23.155613
G1 F1200 X48.400000 Y31.600000 E23.328565
G1 F1200 X48.400000 Y47.600000 E23.860725
G1 F1200 X38.400000 Y47.600000 E24.193325
G1 F1200 X38.400000 Y41.200000 E24.406189
G1 F1200 X35.600000 Y41.200000 E24.499317
G1 F1200 X35.600000 Y51.200001 E24.831917
G1 F1200 X54.400001 Y51.200001 E25.457205
G1 F1200 X54.400001 Y30.800000 E26.135709
G1 F1200 X25.200000 Y30.800000 E27.106901
G1 F1200 X25.200000 Y59.200001 E28.051485
G1 F1200 X64.000001 Y59.200001 E29.341973
G1 F1200 X64.000001 Y15.600000 E30.792109
G1 F1200 X15.300000 Y15.600000 E32.411871
G1 F1200 X15.300000 Y16.000000 E32.425175
G1 F1200 X63.600001 Y16.000000 E34.031633
G1 F1200 X63.600001 Y58.800001 E35.455161
G1 F1200 X25.600000 Y58.800001 E36.719041
G1 F1200 X25.600000 Y31.200000 E37.637017
G1 F1200 X47.600000 Y31.200000 E38.368737
G1 F1200 X47.600000 Y36.400000 E38.541689
G1 F1200 X30.800000 Y36.400000 E39.100457
G1 F1200 X30.800000 Y58.000001 E39.818873
G1 F1200 X26.400000 Y58.000001 E39.965217
G1 F1200 X26.400000 Y32.000000 E40.829977
G1 F1200 X46.800000 Y32.000000 E41.508481
G1 F1200 X46.800000 Y35.600000 E41.628217
G1 F1200 X30.000000 Y35.600000 E42.186985
G1 F1200 X30.000000 Y57.200001 E42.905401
G1 F1200 X27.200000 Y57.200001 E42.998529
G1 F1200 X27.200000 Y32.800000 E43.810073
G1 F1200 X46.000000 Y32.800000 E44.435361
G1 F1200 X46.000000 Y34.800000 E44.501881
G1 F1200 X29.200000 Y34.800000 E45.060649
G1 F1200 X29.200000 Y56.400001 E45.779065
G1 F1200 X28.000000 Y56.400001 E45.818977
G1 F1200 X28.000000 Y33.600000 E46.577306
G1 F1200 X45.200000 Y33.600000 E47.149378
G1 F1200 X45.200000 Y34.000000 E47.162682
G1 F1200 X28.400000 Y34.000000 E47.721450
G1 F1200 X28.400000 Y56.000001 E48.453170
G1 F1200 X28.800000 Y56.000001 E48.466474
G1 F1200 X28.800000 Y34.400000 E49.184890
G1 F1200 X45.600000 Y34.400000 E49.743658
G1 F1200 X45.600000 Y33.200000 E49.783570
G1 F1200 X27.600000 Y33.200000 E50.382250
G1 F1200 X27.600000 Y56.800001 E51.167186
G1 F1200 X29.600000 Y56.800001 E51.233706
G1 F1200 X29.600000 Y35.200000 E51.952122
G1 F1200 X46.400000 Y35.200000 E52.510890
G1 F1200 X46.400000 Y32.400000 E52.604018
G1 F1200 X26.800000 Y32.400000 E53.255914
G1 F1200 X26.800000 Y57.600001 E54.094066
G1 F1200 X30.400000 Y57.600001 E54.213802
G1 F1200 X30.400000 Y36.000000 E54.932218
G1 F1200 X47.200000 Y36.000000 E55.490986
G1 F1200 X47.200000 Y31.600000 E55.637330
G1 F1200 X26.000000 Y31.600000 E56.342442
G1 F1200 X26.000000 Y58.400001 E57.233810
G1 F1200 X63.200001 Y58.400001 E58.471082
G1 F1200 X63.200001 Y16.400000 E59.868002
G1 F1200 X15.300000 Y16.400000 E61.461156
G1 F1200 X15.300000 Y16.800000 E61.474460
G1 F1200 X62.800001 Y16.800000 E63.054310
G1 F1200 X62.800001 Y58.000001 E64.424622
G1 F1200 X31.200000 Y58.000001 E65.475638
G1 F1200 X31.200000 Y55.200001 E65.568766
G1 F1200 X59.200001 Y55.200001 E66.500046
G1 F1200 X59.200001 Y17.600000 E67.750622
G1 F1200 X62.000001 Y17.600000 E67.843750
G1 F1200 X62.000001 Y57.200001 E69.160846
G1 F1200 X32.000000 Y57.200001 E70.158646
G1 F1200 X32.000000 Y56.000001 E70.198558
G1 F1200 X60.000001 Y56.000001 E71.129838
G1 F1200 X60.000001 Y18.400000 E72.380414
G1 F1200 X61.200001 Y18.400000 E72.420326
G1 F1200 X61.200001 Y56.400001 E73.684206
G1 F1200 X60.800001 Y56.400001 E73.697510
G1 F1200 X60.800001 Y18.800000 E74.948086
G1 F1200 X60.400001 Y18.800000 E74.961390
G1 F1200 X60.400001 Y56.400001 E76.211966
G1 F1200 X32.400000 Y56.400001 E77.143246
G1 F1200 X32.400000 Y56.800001 E77.156550
G1 F1200 X61.600001 Y56.800001 E78.127742
G1 F1200 X61.600001 Y18.000000 E79.418230
G1 F1200 X59.600001 Y18.000000 E79.484750
G1 F1200 X59.600001 Y55.600001 E80.735326
G1 F1200 X31.600000 Y55.600001 E81.666606
G1 F1200 X31.600000 Y57.600001 E81.733126
G1 F1200 X62.400001 Y57.600001 E82.757534
G1 F1200 X62.400001 Y17.200000 E84.101238
G1 F1200 X15.300000 Y17.200000 E85.667785
G1 F1200 X15.300000 Y17.600000 E85.681089
G1 F1200 X58.800001 Y17.600000 E87.127899
G1 F1200 X58.800001 Y22.000000 E87.274243
G1 F1200 X19.600000 Y22.000000 E88.578035
G1 F1200 X19.600000 Y74.300001 E90.317533
G1 F1200 X20.000000 Y74.300001 E90.330837
G1 F1200 X20.000000 Y69.600001 E90.487159
G1 F1200 X63.600001 Y69.600001 E91.937295
G1 F1200 X63.600001 Y74.000001 E92.083639
G1 F1200 X20.800000 Y74.000001 E93.507167
G1 F1200 X20.800000 Y70.400001 E93.626903
G1 F1200 X62.800001 Y70.400001 E95.023823
G1 F1200 X62.800001 Y73.200001 E95.116951
G1 F1200 X21.600000 Y73.200001 E96.487263
G1 F1200 X21.600000 Y71.200001 E96.553783
G1 F1200 X62.000001 Y71.200001 E97.897487
G1 F1200 X62.000001 Y72.400001 E97.937399
G1 F1200 X22.400000 Y72.400001 E99.254495
G1 F1200 X22.400000 Y72.000001 E99.267799
G1 F1200 X61.600001 Y72.000001 E100.571591
G1 F1200 X61.600001 Y71.600001 E100.584895
G1 F1200 X22.000000 Y71.600001 E101.901991
G1 F1200 X22.000000 Y72.800001 E101.941903
G1 F1200 X62.400001 Y72.800001 E103.285607
G1 F1200 X62.400001 Y70.800001 E103.352127
G1 F1200 X21.200000 Y70.800001 E104.722439
G1 F1200 X21.200000 Y73.600001 E104.815567
G1 F1200 X63.200001 Y73.600001 E106.212487
G1 F1200 X63.200001 Y70.000001 E106.332223
G1 F1200 X20.400000 Y70.000001 E107.755751
G1 F1200 X20.400000 Y74.400001 E107.902095
G1 F1200 X64.000001 Y74.400001 E109.352231
G1 F1200 X64.000001 Y69.200001 E109.525183
G1 F1200 X20.000000 Y69.200001 E110.988623
G1 F1200 X20.000000 Y68.800001 E111.001927
G1 F1200 X64.400001 Y68.800001 E112.478671
G1 F1200 X64.400001 Y74.800001 E112.678231
G1 F1200 X15.200000 Y74.800001 E114.314623
G1 F1200 X15.200000 Y18.400000 E116.190487
G1 F1200 X58.000001 Y18.400000 E117.614015
G1 F1200 X58.000001 Y21.200000 E117.707143
G1 F1200 X18.800000 Y21.200000 E119.010935
G1 F1200 X18.800000 Y74.000001 E120.767063
G1 F1200 X16.000000 Y74.000001 E120.860191
G1 F1200 X16.000000 Y19.200000 E122.682839
G1 F1200 X57.200001 Y19.200000 E124.053151
G1 F1200 X57.200001 Y20.400000 E124.093063
G1 F1200 X18.000000 Y20.400000 E125.396855
G1 F1200 X18.000000 Y73.200001 E127.152983
G1 F1200 X16.800000 Y73.200001 E127.192895
G1 F1200 X16.800000 Y20.000000 E128.962327
G1 F1200 X17.200000 Y20.000000 E128.975631
G1 F1200 X17.200000 Y72.800001 E130.731759
G1 F1200 X17.600000 Y72.800001 E130.745063
G1 F1200 X17.600000 Y20.000000 E132.501192
G1 F1200 X56.800001 Y20.000000 E133.804984
G1 F1200 X56.800001 Y19.600000 E133.818288
G1 F1200 X16.400000 Y19.600000 E135.161992
G1 F1200 X16.400000 Y73.600001 E136.958032
G1 F1200 X18.400000 Y73.600001 E137.024552
G1 F1200 X18.400000 Y20.800000 E138.780680
G1 F1200 X57.600001 Y20.800000 E140.084472
G1 F1200 X57.600001 Y18.800000 E140.150992
G1 F1200 X15.600000 Y18.800000 E141.547912
G1 F1200 X15.600000 Y74.400001 E143.397168
G1 F1200 X19.200000 Y74.400001 E143.516904
G1 F1200 X19.200000 Y21.600000 E145.273032
G1 F1200 X58.400001 Y21.600000 E146.576824
G1 F1200 X58.400001 Y18.000000 E146.696560
G1 F1200 X15.200000 Y18.000000 E148.133392
G1 F1200 X15.200000 Y15.200000 E148.226520
;TYPE:WALL-OUTPE
G0 F9000 X15.200000 Y15.200000 Z0.400000
;TYPE:FILL
G1 F4800 E146.226520
G0 X15.200000 Y15.200000
G1 F4800 E148.226520
G1 F3000 X64.400001 Y15.200000 E149.862912
G1 F3000 X64.400001 Y59.600001 E151.339656
G1 F3000 X24.800000 Y59.600001 E152.656752
G1 F3000 X24.800000 Y30.400000 E153.627944
G1 F3000 X54.800001 Y30.400000 E154.625744
G1 F3000 X54.800001 Y51.600001 E155.330856
G1 F3000 X35.200000 Y51.600001 E155.982752
G1 F3000 X35.200000 Y40.800000 E156.341960
G1 F3000 X38.800000 Y40.800000 E156.461696
G1 F3000 X38.800000 Y47.200000 E156.674560
G1 F3000 X48.000000 Y47.200000 E156.980552
G1 F3000 X48.000000 Y31.200000 E157.512712
G1 F3000 X54.000001 Y31.200000 E157.712272
G1 F3000 X54.000001 Y50.800001 E158.364168
G1 F3000 X36.000000 Y50.800001 E158.962848
G1 F3000 X36.000000 Y41.600000 E159.268840
G1 F3000 X38.000000 Y41.600000 E159.335360
G1 F3000 X38.000000 Y48.000000 E159.548224
G1 F3000 X48.800001 Y48.000000 E159.907432
G1 F3000 X48.800001 Y32.000000 E160.439592
G1 F3000 X53.200001 Y32.000000 E160.585936
G1 F3000 X53.200001 Y50.000001 E161.184616
G1 F3000 X36.800000 Y50.000001 E161.730080
G1 F3000 X36.800000 Y42.400000 E161.982856
G1 F3000 X37.200000 Y42.400000 E161.996160
G1 F3000 X37.200000 Y49.600001 E162.235632
G1 F3000 X52.800001 Y49.600001 E162.754488
G1 F3000 X52.800001 Y32.400000 E163.326560
G1 F3000 X50.200001 Y32.400000 E163.413036
G1 F3000 X50.200001 Y32.800000 E163.426340
G1 F3000 X52.400001 Y32.800000 E163.499512
G1 F3000 X52.400001 Y49.200001 E164.044977
G1 F3000 X37.600000 Y49.200001 E164.537225
G1 F3000 X37.600000 Y48.800001 E164.550529
G1 F3000 X52.000001 Y48.800001 E165.029473
G1 F3000 X52.000001 Y33.200000 E165.548329
G1 F3000 X49.700001 Y33.200000 E165.624827
G1 F3000 X49.700001 Y33.600000 E165.638131
G1 F3000 X51.600001 Y33.600000 E165.701325
G1 F3000 X51.600001 Y48.400000 E166.193573
G1 F3000 X49.600001 Y48.400000 E166.260093
G1 F3000 X49.600001 Y34.400000 E166.725733
G1 F3000 X50.800001 Y34.400000 E166.765645
G1 F3000 X50.800001 Y47.600000 E167.204677
G1 F3000 X50.400001 Y47.600000 E167.217981
G1 F3000 X50.400001 Y34.800000 E167.643709
G1 F3000 X50.000001 Y34.800000 E167.657013
G1 F3000 X50.000001 Y48.000000 E168.096045
G1 F3000 X51.200001 Y48.000000 E168.135957
G1 F3000 X51.200001 Y34.000000 E168.601597
G1 F3000 X49.600001 Y34.000000 E168.654813
G1 F3000 X49.600001 Y32.800000 E168.694725
G1 F3000 X49.800001 Y32.800000 E168.701377
G1 F3000 X49.800001 Y32.400000 E168.714681
G1 F3000 X49.200001 Y32.400000 E168.734637
G1 F3000 X49.200001 Y48.400000 E169.266797
G1 F3000 X37.600000 Y48.400000 E169.652613
G1 F3000 X37.600000 Y42.000000 E169.865477
G1 F3000 X36.400000 Y42.000000 E169.905389
G1 F3000 X36.400000 Y50.400001 E170.184773
G1 F3000 X53.600001 Y50.400001 E170.756845
G1 F3000 X53.600001 Y31.600000 E171.382133
G1 F3000 X48.400000 Y31.600000 E171.555085
G1 F3000 X48.400000 Y47.600000 E172.087245
G1 F3000 X38.400000 Y47.600000 E172.419845
G1 F3000 X38.400000 Y41.200000 E172.632709
G1 F3000 X35.600000 Y41.200000 E172.725837
G1 F3000 X35.600000 Y51.200001 E173.058437
G1 F3000 X54.400001 Y51.200001 E173.683725
G1 F3000 X54.400001 Y30.800000 E174.362229
G1 F3000 X25.200000 Y30.800000 E175.333421
G1 F3000 X25.200000 Y59.200001 E176.278005
G1 F3000 X64.000001 Y59.200001 E177.568493
G1 F3000 X64.000001 Y15.600000 E179.018629
G1 F3000 X15.300000 Y15.600000 E180.638391
G1 F3000 X15.300000 Y16.000000 E180.651695
G1 F3000 X63.600001 Y16.000000 E182.258153
G1 F3000 X63.600001 Y58.800001 E183.681681
G1 F3000 X25.600000 Y58.800001 E184.945561
G1 F3000 X25.600000 Y31.200000 E185.863537
G1 F3000 X47.600000 Y31.200000 E186.595257
G1 F3000 X47.600000 Y36.400000 E186.768209
G1 F3000 X30.800000 Y36.400000 E187.326977
G1 F3000 X30.800000 Y58.000001 E188.045393
G1 F3000 X26.400000 Y58.000001 E188.191737
G1 F3000 X26.400000 Y32.000000 E189.056497
G1 F3000 X46.800000 Y32.000000 E189.735001
G1 F3000 X46.800000 Y35.600000 E189.854737
G1 F3000 X30.000000 Y35.600000 E190.413505
G1 F3000 X30.000000 Y57.200001 E191.131921
G1 F3000 X27.200000 Y57.200001 E191.225049
G1 F3000 X27.200000 Y32.800000 E192.036593
G1 F3000 X46.000000 Y32.800000 E192.661881
G1 F3000 X46.000000 Y34.800000 E192.728401
G1 F3000 X29.200000 Y34.800000 E193.287169
G1 F3000 X29.200000 Y56.400001 E194.005585
G1 F3000 X28.000000 Y56.400001 E194.045497
G1 F3000 X28.000000 Y33.600000 E194.803825
G1 F3000 X45.200000 Y33.600000 E195.375897
G1 F3000 X45.200000 Y34.000000 E195.389201
G1 F3000 X28.400000 Y34.000000 E195.947969
G1 F3000 X28.400000 Y56.000001 E196.679689
G1 F3000 X28.800000 Y56.000001 E196.692993
G1 F3000 X28.800000 Y34.400000 E197.411409
G1 F3000 X45.600000 Y34.400000 E197.970177
G1 F3000 X45.600000 Y33.200000 E198.010089
G1 F3000 X27.600000 Y33.200000 E198.608769
G1 F3000 X27.600000 Y56.800001 E199.393705
G1 F3000 X29.600000 Y56.800001 E199.460225
G1 F3000 X29.600000 Y35.200000 E200.178642
G1 F3000 X46.400000 Y35.200000 E200.737410
G1 F3000 X46.400000 Y32.400000 E200.830538
G1 F3000 X26.800000 Y32.400000 E201.482434
G1 F3000 X26.800000 Y57.600001 E202.320586
G1 F3000 X30.400000 Y57.600001 E202.440322
G1 F3000 X30.400000 Y36.000000 E203.158738
G1 F3000 X47.200000 Y36.000000 E203.717506
G1 F3000 X47.200000 Y31.600000 E203.863850
G1 F3000 X26.000000 Y31.600000 E204.568962
G1 F3000 X26.000000 Y58.400001 E205.460330
G1 F3000 X63.200001 Y58.400001 E206.697602
G1 F3000 X63.200001 Y16.400000 E208.094522
G1 F3000 X15.300000 Y16.400000 E209.687676
G1 F3000 X15.300000 Y16.800000 E209.700980
G1 F3000 X62.800001 Y16.800000 E211.280830
G1 F3000 X62.800001 Y58.000001 E212.651142
G1 F3000 X31.200000 Y58.000001 E213.702158
G1 F3000 X31.200000 Y55.200001 E213.795286
G1 F3000 X59.200001 Y55.200001 E214.726566
G1 F3000 X59.200001 Y17.600000 E215.977142
G1 F3000 X62.000001 Y17.600000 E216.070270
G1 F3000 X62.000001 Y57.200001 E217.387366
G1 F3000 X32.000000 Y57.200001 E218.385166
G1 F3000 X32.000000 Y56.000001 E218.425078
G1 F3000 X60.000001 Y56.000001 E219.356358
